!!!!SEGMENT: pl-wtm--r-1664--005_stefani-jozef--okropnosc-czyli-nowa-lafarge-no-4.krn
!!!cenid: 18xx:2060
!!!COM: Stefani, Józef
!!!COM-rismID: pe30024097
!!!CDT: 1800/04/16-1876/03/19
!!!CNT: Polish
!!!OPR: Okropność czyli Nowa Lafarge
!!!OTL: No. 4
!!!OMV: 005
!!!PDT:
!!!AGN: Secular
!!!SMS-siglum: PL-Wtm
!!!SMS-shelfmark: R 1664
!!!SMS-shelfwork: 001-005 M
!!!SMS-variant:
!!!SMS-altvar:
!!!NIFC-rismSourceID: 1001114328
!!!NIFC-islandoraID: pl-wtm:27523
!!!URL-pdf-islandora: https://repozytorium.nifc.pl/islandora/object/pl-wtm%3A27523/datastream/PDF/view
!!!URL-scan: https://polish.musicsources.pl/pl/lokalizacje/galeria/rekopisy/6406 @EN{Scan on Polish Music Sources Website} @PL{Skany w portalu Dziedzictwo Muzyki Polskiej w otwartym dostępie}
!!!ONB-nifc: UWAGA: skany 0020-0024
!!!AIN: 1 cbass 1 cello 1 clars 1 cor 1 empty 1 fagot 1 flt 1 oboe 1 timpa 1 tromp 1 tromt 1 viola 2 violn
!!!key:
**kern	**dynam	**kern	**dynam	**kern	**text	**kern	**dynam	**kern	**dynam	**kern	**dynam	**kern	**dynam	**kern	**dynam	**kern	**dynam	**kern	**dynam	**kern	**dynam	**kern	**dynam	**kern	**dynam	**kern	**dynam
*part15	*part15	*part14	*part14	*part13	*part13	*part12	*part12	*part11	*part11	*part10	*part10	*part8	*part8	*part7	*part7	*part6	*part6	*part5	*part5	*part4	*part4	*part3	*part3	*part2	*part2	*part1	*part1
*staff15	*	*staff14	*	*staff13	*staff13	*staff12	*	*staff11	*	*staff10	*	*staff8	*	*staff7	*	*staff6	*	*staff5	*	*staff4	*	*staff3	*	*staff2	*	*staff1	*
*Icbass	*	*Icello	*	*Iempty	*	*Iviola	*	*Ivioln	*	*Ivioln	*	*Itimpa	*	*Itromt	*	*Itromp	*	*Ifagot	*	*Icor	*	*Iclars	*	*Ioboe	*	*Iflt	*
*I"C: Baſsi	*	*I"Violoncelli	*	*I"Szymon	*	*I"Viole	*	*I"Violini	*	*I"Violini	*	*I"C. F. Timpani	*	*I"Trombone	*	*I"in C Trombe	*	*I"Fagoto	*	*I"in F. Corni	*	*I"in C. Clarinetti	*	*I"Oboe	*	*I"Flauto	*
*I'cb	*	*I'vlc	*	*I'V	*	*I'vla	*	*I'vl	*	*I'vl	*	*I'timp in C and F	*	*I'trb	*	*I'tr in C	*	*I'fag	*	*I'cor in F	*	*I'cl in C	*	*I'ob	*	*I'fl	*
*clefF4	*	*clefF4	*	*clefG2	*	*clefC3	*	*clefG2	*	*clefG2	*	*clefF4	*	*clefF4	*	*clefG2	*	*clefF4	*	*clefG2	*	*clefG2	*	*clefG2	*	*clefG2	*
*ITrd0c0	*	*	*	*	*	*	*	*	*	*	*	*	*	*	*	*	*	*	*	*ITrd-1c-2	*	*ITrd2c3	*	*	*	*	*
*k[f#c#]	*	*k[f#c#]	*	*k[f#c#]	*	*k[f#c#]	*	*k[f#c#]	*	*k[f#c#]	*	*	*	*k[f#c#]	*	*k[f#c#]	*	*k[f#c#]	*	*k[f#c#]	*	*k[f#c#]	*	*k[f#c#]	*	*k[f#c#]	*
*D:	*	*D:	*	*D:	*	*D:	*	*D:	*	*D:	*	*	*	*D:	*	*D:	*	*D:	*	*D:	*	*D:	*	*D:	*	*D:	*
*M6/8	*	*M6/8	*	*M6/8	*	*M6/8	*	*M6/8	*	*M6/8	*	*M6/8	*	*M6/8	*	*M6/8	*	*M6/8	*	*M6/8	*	*M6/8	*	*M6/8	*	*M6/8	*
*>[A,B,B]	*	*>[A,B,B]	*	*>[A,B,B]	*	*>[A,B,B]	*	*>[A,B,B]	*	*>[A,B,B]	*	*>[A,B,B]	*	*>[A,B,B]	*	*>[A,B,B]	*	*>[A,B,B]	*	*>[A,B,B]	*	*>[A,B,B]	*	*>[A,B,B]	*	*>[A,B,B]	*
=1	=1	=1	=1	=1	=1	=1	=1	=1	=1	=1	=1	=1	=1	=1	=1	=1	=1	=1	=1	=1	=1	=1	=1	=1	=1	=1	=1
*>A	*	*>A	*	*>A	*	*>A	*	*>A	*	*>A	*	*>A	*	*>A	*	*>A	*	*>A	*	*>A	*	*>A	*	*>A	*	*>A	*
*	*	*	*	*	*	*	*	*tremolo	*	*tremolo	*	*2\right	*	*2\right	*	*	*	*	*	*	*	*	*	*	*	*	*
!	!	!LO:TX:t=P:problem=brak zapisanej partii. Odnośnik do cb	!	!	!LO:DY:b:rj	!LO:TX:a:t=P:mixedbeam:problem	!LO:DY:b:rj	!	!LO:DY:b:rj	!	!LO:DY:b:rj	!	!	!	!LO:DY:b:rj	!	!	!	!LO:DY:b:rj	!	!LO:DY:b:rj	!	!LO:DY:b:rj	!	!LO:DY:b:rj	!	!
!	!	!	!	!	!	!	!	!	!	!	!LO:HP:b	!	!	!	!LO:HP:b	!	!	!	!	!	!	!	!	!	!LO:HP:a	!LO:TX:a:t=P:problem=all\right&colon; global	!
16DD'</LL	.	16DD'</LLyy	.	2.r	.	16D'</LL	f	32A/LLL	f	32f#/LLL	f <	2.r	.	2.D\	f < [[	2.r	.	16DD'</LL	f	2.dd 2.d/	f	4.f# 4.A/	f	2.d/	f <	2.r	.
.	.	.	.	.	.	.	.	32A/	.	32f#/	.	.	.	.	.	.	.	.	.	.	.	.	.	.	.	.	.
(<16D/	.	(<16D/yy	.	.	.	(>16d\	.	32A/	.	32f#/	.	.	.	.	.	.	.	(<16D/	.	.	.	.	.	.	.	.	.
.	.	.	.	.	.	.	.	32A/	.	32f#/	.	.	.	.	.	.	.	.	.	.	.	.	.	.	.	.	.
!	!	!	!	!	!	!	!	!	!	!	!	!	!	!	!	!	!	!	!	!	!	!	!LO:HP:b	!	!	!	!
16C#/	.	16C#/yy	.	.	.	16c#\	.	32A/	.	32f#/	.	.	.	.	.	.	.	16C#/	.	.	.	.	<	.	.	.	.
!	!	!	!	!	!	!	!	!	!	!	!	!	!	!	!	!	!	!	!	!	!LO:HP:b	!	!	!	!	!	!
.	.	.	.	.	.	.	.	32A/	.	32f#/	.	.	.	.	.	.	.	.	.	.	<	.	.	.	.	.	.
16D/	.	16D/yy	.	.	.	16d\	.	32A/	.	32f#/	.	.	.	.	.	.	.	16D/	.	.	.	.	.	.	.	.	.
.	.	.	.	.	.	.	.	32A/	.	32f#/	.	.	.	.	.	.	.	.	.	.	.	.	.	.	.	.	.
16C#/	.	16C#/yy	.	.	.	16c#\	.	32A/	.	32f#/	.	.	.	.	.	.	.	16C#/	.	.	.	.	.	.	.	.	.
.	.	.	.	.	.	.	.	32A/	.	32f#/	.	.	.	.	.	.	.	.	.	.	.	.	.	.	.	.	.
16D/JJ)	.	16D/JJ)yy	.	.	.	16d\JJ)	.	32A/	.	32f#/	.	.	.	.	.	.	.	16D/JJ)	.	.	.	.	.	.	.	.	.
.	.	.	.	.	.	.	.	32A/JJJ	.	32f#/JJJ	.	.	.	.	.	.	.	.	.	.	.	.	.	.	.	.	.
*rep	*	*rep	*	*	*	*rep	*	*	*	*	*	*	*	*	*	*	*	*rep	*	*	*	*	*	*	*	*	*
!	!	!	!	!	!	!LO:TX:a:t=P:problem=mixedbeam	!	!	!	!	!	!	!	!	!	!	!	!	!	!	!	!	!	!	!	!	!
16DD'</LL	.	16DD'</LLyy	.	.	.	16D'</LL	.	32B-X/LLL	.	32g/LLL	.	.	.	.	.	.	.	16DD'</LL	.	.	.	4g 4B-X/	.	.	.	.	.
.	.	.	.	.	.	.	.	32B-/	.	32g/	.	.	.	.	.	.	.	.	.	.	.	.	.	.	.	.	.
(<16D/	.	(<16D/yy	.	.	.	(>16d\	.	32B-/	.	32g/	.	.	.	.	.	.	.	(<16D/	.	.	.	.	.	.	.	.	.
.	.	.	.	.	.	.	.	32B-/	.	32g/	.	.	.	.	.	.	.	.	.	.	.	.	.	.	.	.	.
16C#/	.	16C#/yy	.	.	.	16c#\	.	32B-/	.	32g/	.	.	.	.	.	.	.	16C#/	.	.	.	.	.	.	.	.	.
.	.	.	.	.	.	.	.	32B-/	.	32g/	.	.	.	.	.	.	.	.	.	.	.	.	.	.	.	.	.
16D/	.	16D/yy	.	.	.	16d\	.	32B-/	.	32g/	.	.	.	.	.	.	.	16D/	.	.	.	.	.	.	.	.	.
.	.	.	.	.	.	.	.	32B-/JJJ	.	32g/JJJ	.	.	.	.	.	.	.	.	.	.	.	.	.	.	.	.	.
*	*	*	*	*	*	*	*	*Xtremolo	*	*Xtremolo	*	*	*	*	*	*	*	*	*	*	*	*	*	*	*	*	*
16C#/	.	16C#/yy	.	.	.	16c#\	.	32G/LLL	.	32e/LLL	[	.	.	.	.	.	.	16C#/	.	.	.	8e 8G/	[[	.	[	.	.
.	.	.	.	.	.	.	.	32G/	.	32e/	.	.	.	.	.	.	.	.	.	.	.	.	.	.	.	.	.
16D/JJ)	.	16D/JJ)yy	.	.	.	16d\JJ)	.	32G/	.	32e/	.	.	.	.	.	.	.	16D/JJ)	.	.	.	.	.	.	.	.	.
.	.	.	.	.	.	.	.	32G/JJJ	.	32e/JJJ	.	.	.	.	.	.	.	.	.	.	[	.	.	.	.	.	.
*Xrep	*	*Xrep	*	*	*	*Xrep	*	*	*	*	*	*	*	*	*	*	*	*Xrep	*	*	*	*	*	*	*	*	*
=2	=2	=2	=2	=2	=2	=2	=2	=2	=2	=2	=2	=2	=2	=2	=2	=2	=2	=2	=2	=2	=2	=2	=2	=2	=2	=2	=2
*rep	*	*rep	*	*	*	*rep	*	*tremolo	*	*tremolo	*	*	*	*	*	*	*	*	*	*	*	*	*	*	*	*	*
*	*	*	*	*	*	*	*	*rep	*	*rep	*	*	*	*	*	*	*	*	*	*	*	*	*	*	*	*	*
!	!	!	!	!	!	!LO:TX:a:t=P:problem=mixedbeam	!LO:DY:b:rj	!	!LO:DY:b:rj	!	!LO:DY:b:rj	!	!	!	!	!	!	!	!	!	!	!	!	!	!LO:DY:a	!	!
!	!	!	!	!	!	!	!	!	!	!	!LO:HP:b	!	!	!	!LO:HP:b	!	!	!	!	!	!	!	!	!	!LO:HP:a	!	!
16DD'</LL	.	16DD'</LLyy	.	2.r	.	16D'</LL	f	32A/LLL	f	32f#/LLL	f<	2.r	.	2.D\	<[	2.r	.	16DD'</LL	.	2.dd 2.d/	.	4.f# 4.A/	.	2.d/	<	2.r	.
.	.	.	.	.	.	.	.	32A/	.	32f#/	.	.	.	.	.	.	.	.	.	.	.	.	.	.	.	.	.
(<16D/	.	(<16D/yy	.	.	.	(>16d\	.	32A/	.	32f#/	.	.	.	.	.	.	.	(<16D/	.	.	.	.	.	.	.	.	.
!	!	!	!	!	!	!	!	!	!	!	!	!	!	!	!	!	!	!	!	!	!	!	!LO:HP:b	!	!	!	!
.	.	.	.	.	.	.	.	32A/	.	32f#/	.	.	.	.	.	.	.	.	.	.	.	.	<	.	.	.	.
16C#/	.	16C#/yy	.	.	.	16c#\	.	32A/	.	32f#/	.	.	.	.	.	.	.	16C#/	.	.	.	.	.	.	.	.	.
!	!	!	!	!	!	!	!	!	!	!	!	!	!	!	!	!	!	!	!	!	!LO:HP:b	!	!	!	!	!	!
.	.	.	.	.	.	.	.	32A/	.	32f#/	.	.	.	.	.	.	.	.	.	.	<	.	.	.	.	.	.
16D/	.	16D/yy	.	.	.	16d\	.	32A/	.	32f#/	.	.	.	.	.	.	.	16D/	.	.	.	.	.	.	.	.	.
.	.	.	.	.	.	.	.	32A/	.	32f#/	.	.	.	.	.	.	.	.	.	.	.	.	.	.	.	.	.
16C#/	.	16C#/yy	.	.	.	16c#\	.	32A/	.	32f#/	.	.	.	.	.	.	.	16C#/	.	.	.	.	.	.	.	.	.
.	.	.	.	.	.	.	.	32A/	.	32f#/	.	.	.	.	.	.	.	.	.	.	.	.	.	.	.	.	.
16D/JJ)	.	16D/JJ)	.	.	.	16d\JJ)	.	32A/	.	32f#/	.	.	.	.	.	.	.	16D/JJ)	.	.	.	.	.	.	.	.	.
.	.	.	.	.	.	.	.	32A/JJJ	.	32f#/JJJ	.	.	.	.	.	.	.	.	.	.	.	.	.	.	.	.	.
!	!	!	!	!	!	!LO:TX:a:t=P:problem=mixedbeam	!	!	!	!	!	!	!	!	!	!	!	!	!	!	!	!	!	!	!	!	!
*	*	*	*	*	*	*	*	*	*	*	*	*	*	*	*	*	*	*rep	*	*	*	*	*	*	*	*	*
16DD'</LL	.	16DD'</LL	.	.	.	16D'</LL	.	32B-X/LLL	.	32g/LLL	.	.	.	.	.	.	.	16DD'</LL	.	.	.	4g 4B-X/	.	.	.	.	.
.	.	.	.	.	.	.	.	32B-/	.	32g/	.	.	.	.	.	.	.	.	.	.	.	.	.	.	.	.	.
(<16D/	.	(<16D/yy	.	.	.	(>16d\	.	32B-/	.	32g/	.	.	.	.	.	.	.	(<16D/	.	.	.	.	.	.	.	.	.
.	.	.	.	.	.	.	.	32B-/	.	32g/	.	.	.	.	.	.	.	.	.	.	.	.	.	.	.	.	.
16C#/	.	16C#/yy	.	.	.	16c#\	.	32B-/	.	32g/	.	.	.	.	.	.	.	16C#/	.	.	.	.	.	.	.	.	.
.	.	.	.	.	.	.	.	32B-/	.	32g/	.	.	.	.	.	.	.	.	.	.	.	.	.	.	.	.	.
16D/	.	16D/yy	.	.	.	16d\	.	32B-/	.	32g/	.	.	.	.	.	.	.	16D/	.	.	.	.	.	.	.	.	.
.	.	.	.	.	.	.	.	32B-/JJJ	.	32g/JJJ	.	.	.	.	.	.	.	.	.	.	.	.	.	.	.	.	.
*	*	*	*	*	*	*	*	*Xtremolo	*	*Xtremolo	*	*	*	*	*	*	*	*	*	*	*	*	*	*	*	*	*
16C#/	.	16C#/yy	.	.	.	16c#\	.	32G/LLL	.	32e/LLL	[	.	.	.	.	.	.	16C#/	.	.	.	8e 8G/	[[	.	[	.	.
.	.	.	.	.	.	.	.	32G/	.	32e/	.	.	.	.	.	.	.	.	.	.	.	.	.	.	.	.	.
16D/JJ)	.	16D/JJ)yy	.	.	.	16d\JJ)	.	32G/	.	32e/	.	.	.	.	.	.	.	16D/JJ)	.	.	.	.	.	.	.	.	.
.	.	.	.	.	.	.	.	32G/JJJ	.	32e/JJJ	.	.	.	.	.	.	.	.	.	.	[	.	.	.	.	.	.
*Xrep	*	*Xrep	*	*	*	*Xrep	*	*Xrep	*	*Xrep	*	*	*	*	*	*	*	*Xrep	*	*	*	*	*	*	*	*	*
=3	=3	=3	=3	=3	=3	=3	=3	=3	=3	=3	=3	=3	=3	=3	=3	=3	=3	=3	=3	=3	=3	=3	=3	=3	=3	=3	=3
*	*	*	*	*	*	*	*	*	*	*	*	*	*	*	*	*	*	*	*	*^	*	*	*	*	*	*	*
*	*	*	*	*	*	*	*	*	*	*	*	*2\right	*	*	*	*	*	*2\right	*	*2\right	*2\right	*	*	*	*	*	*	*
!	!	!	!	!	!	!	!	!	!	!	!	!	!LO:DY:b:rj	!	!	!	!	!	!LO:DY:b:rj	!	!	!LO:DY:b:rj	!	!	!	!	!	!
4D\	.	4D\yy	.	2.r	.	4d\	.	4A/	.	4f#/	.	2.DTT>\	pp	2.r	.	2.r	.	2.D\	p	(>2.ff#/	2.dd\	p	2.r	.	2.r	.	2.r	.
.	.	.	.	.	.	.	.	.	.	.	.	.	.	.	.	.	.	.	.	.	.	.	.	.	.	.	.	.
.	.	.	.	.	.	.	.	.	.	.	.	.	.	.	.	.	.	.	.	.	.	.	.	.	.	.	.	.
.	.	.	.	.	.	.	.	.	.	.	.	.	.	.	.	.	.	.	.	.	.	.	.	.	.	.	.	.
.	.	.	.	.	.	.	.	.	.	.	.	.	.	.	.	.	.	.	.	.	.	.	.	.	.	.	.	.
.	.	.	.	.	.	.	.	.	.	.	.	.	.	.	.	.	.	.	.	.	.	.	.	.	.	.	.	.
.	.	.	.	.	.	.	.	.	.	.	.	.	.	.	.	.	.	.	.	.	.	.	.	.	.	.	.	.
.	.	.	.	.	.	.	.	.	.	.	.	.	.	.	.	.	.	.	.	.	.	.	.	.	.	.	.	.
8r	.	8ryy	.	.	.	8r	.	8r	.	8r	.	.	.	.	.	.	.	.	.	.	.	.	.	.	.	.	.	.
.	.	.	.	.	.	.	.	.	.	.	.	.	.	.	.	.	.	.	.	.	.	.	.	.	.	.	.	.
.	.	.	.	.	.	.	.	.	.	.	.	.	.	.	.	.	.	.	.	.	.	.	.	.	.	.	.	.
.	.	.	.	.	.	.	.	.	.	.	.	.	.	.	.	.	.	.	.	.	.	.	.	.	.	.	.	.
4r	.	4ryy	.	.	.	4r	.	4r	.	4r	.	.	.	.	.	.	.	.	.	.	.	.	.	.	.	.	.	.
.	.	.	.	.	.	.	.	.	.	.	.	.	.	.	.	.	.	.	.	.	.	.	.	.	.	.	.	.
.	.	.	.	.	.	.	.	.	.	.	.	.	.	.	.	.	.	.	.	.	.	.	.	.	.	.	.	.
.	.	.	.	.	.	.	.	.	.	.	.	.	.	.	.	.	.	.	.	.	.	.	.	.	.	.	.	.
.	.	.	.	.	.	.	.	.	.	.	.	.	.	.	.	.	.	.	.	.	.	.	.	.	.	.	.	.
.	.	.	.	.	.	.	.	.	.	.	.	.	.	.	.	.	.	.	.	.	.	.	.	.	.	.	.	.
.	.	.	.	.	.	.	.	.	.	.	.	.	.	.	.	.	.	.	.	.	.	.	.	.	.	.	.	.
.	.	.	.	.	.	.	.	.	.	.	.	.	.	.	.	.	.	.	.	.	.	.	.	.	.	.	.	.
8r	.	8ryy	.	.	.	8r	.	8r	.	8r	.	.	.	.	.	.	.	.	.	.	.	.	.	.	.	.	.	.
.	.	.	.	.	.	.	.	.	.	.	.	.	.	.	.	.	.	.	.	.	.	.	.	.	.	.	.	.
.	.	.	.	.	.	.	.	.	.	.	.	.	.	.	.	.	.	.	.	.	.	.	.	.	.	.	.	.
.	.	.	.	.	.	.	.	.	.	.	.	.	.	.	.	.	.	.	.	.	.	.	.	.	.	.	.	.
=4	=4	=4	=4	=4	=4	=4	=4	=4	=4	=4	=4	=4	=4	=4	=4	=4	=4	=4	=4	=4	=4	=4	=4	=4	=4	=4	=4	=4
!LO:TX:i:b:t=pizz	!	!LO:TX:i:b:t=pizz	!	!	!	!LO:TX:i:b:t=pizz	!	!LO:TX:i:b:t=pizz	!	!LO:TX:i:b:t=pizz	!	!	!	!	!	!	!	!	!	!	!	!	!	!	!	!	!	!
4B\	.	4B\yy	.	2.r	.	4B/	.	4d/	.	4f#/	.	2.DTTT\	.	2.r	.	2.r	.	2.B\	.	2.ff#/)	2.dd\	.	2.r	.	2.r	.	2.r	.
.	.	.	.	.	.	.	.	.	.	.	.	.	.	.	.	.	.	.	.	.	.	.	.	.	.	.	.	.
.	.	.	.	.	.	.	.	.	.	.	.	.	.	.	.	.	.	.	.	.	.	.	.	.	.	.	.	.
.	.	.	.	.	.	.	.	.	.	.	.	.	.	.	.	.	.	.	.	.	.	.	.	.	.	.	.	.
.	.	.	.	.	.	.	.	.	.	.	.	.	.	.	.	.	.	.	.	.	.	.	.	.	.	.	.	.
.	.	.	.	.	.	.	.	.	.	.	.	.	.	.	.	.	.	.	.	.	.	.	.	.	.	.	.	.
.	.	.	.	.	.	.	.	.	.	.	.	.	.	.	.	.	.	.	.	.	.	.	.	.	.	.	.	.
.	.	.	.	.	.	.	.	.	.	.	.	.	.	.	.	.	.	.	.	.	.	.	.	.	.	.	.	.
8r	.	8ryy	.	.	.	8r	.	8r	.	8r	.	.	.	.	.	.	.	.	.	.	.	.	.	.	.	.	.	.
.	.	.	.	.	.	.	.	.	.	.	.	.	.	.	.	.	.	.	.	.	.	.	.	.	.	.	.	.
.	.	.	.	.	.	.	.	.	.	.	.	.	.	.	.	.	.	.	.	.	.	.	.	.	.	.	.	.
.	.	.	.	.	.	.	.	.	.	.	.	.	.	.	.	.	.	.	.	.	.	.	.	.	.	.	.	.
4r	.	4ryy	.	.	.	4r	.	4r	.	4r	.	.	.	.	.	.	.	.	.	.	.	.	.	.	.	.	.	.
.	.	.	.	.	.	.	.	.	.	.	.	.	.	.	.	.	.	.	.	.	.	.	.	.	.	.	.	.
.	.	.	.	.	.	.	.	.	.	.	.	.	.	.	.	.	.	.	.	.	.	.	.	.	.	.	.	.
.	.	.	.	.	.	.	.	.	.	.	.	.	.	.	.	.	.	.	.	.	.	.	.	.	.	.	.	.
.	.	.	.	.	.	.	.	.	.	.	.	.	.	.	.	.	.	.	.	.	.	.	.	.	.	.	.	.
.	.	.	.	.	.	.	.	.	.	.	.	.	.	.	.	.	.	.	.	.	.	.	.	.	.	.	.	.
.	.	.	.	.	.	.	.	.	.	.	.	.	.	.	.	.	.	.	.	.	.	.	.	.	.	.	.	.
.	.	.	.	.	.	.	.	.	.	.	.	.	.	.	.	.	.	.	.	.	.	.	.	.	.	.	.	.
8r	.	8ryy	.	.	.	8r	.	8r	.	8r	.	.	.	.	.	.	.	.	.	.	.	.	.	.	.	.	.	.
.	.	.	.	.	.	.	.	.	.	.	.	.	.	.	.	.	.	.	.	.	.	.	.	.	.	.	.	.
.	.	.	.	.	.	.	.	.	.	.	.	.	.	.	.	.	.	.	.	.	.	.	.	.	.	.	.	.
.	.	.	.	.	.	.	.	.	.	.	.	.	.	.	.	.	.	.	.	.	.	.	.	.	.	.	.	.
!!LO:PB:g=original
=5	=5	=5	=5	=5	=5	=5	=5	=5	=5	=5	=5	=5	=5	=5	=5	=5	=5	=5	=5	=5	=5	=5	=5	=5	=5	=5	=5	=5
4G\	.	4G\yy	.	2.r	.	4B/	.	4d/	.	4e/	.	2.DTT>\	.	2.r	.	2.r	.	2.G\	.	2.ee/	2.dd\	.	2.r	.	2.r	.	2.r	.
.	.	.	.	.	.	.	.	.	.	.	.	.	.	.	.	.	.	.	.	.	.	.	.	.	.	.	.	.
.	.	.	.	.	.	.	.	.	.	.	.	.	.	.	.	.	.	.	.	.	.	.	.	.	.	.	.	.
.	.	.	.	.	.	.	.	.	.	.	.	.	.	.	.	.	.	.	.	.	.	.	.	.	.	.	.	.
.	.	.	.	.	.	.	.	.	.	.	.	.	.	.	.	.	.	.	.	.	.	.	.	.	.	.	.	.
.	.	.	.	.	.	.	.	.	.	.	.	.	.	.	.	.	.	.	.	.	.	.	.	.	.	.	.	.
.	.	.	.	.	.	.	.	.	.	.	.	.	.	.	.	.	.	.	.	.	.	.	.	.	.	.	.	.
.	.	.	.	.	.	.	.	.	.	.	.	.	.	.	.	.	.	.	.	.	.	.	.	.	.	.	.	.
8r	.	8ryy	.	.	.	8r	.	8r	.	8r	.	.	.	.	.	.	.	.	.	.	.	.	.	.	.	.	.	.
.	.	.	.	.	.	.	.	.	.	.	.	.	.	.	.	.	.	.	.	.	.	.	.	.	.	.	.	.
.	.	.	.	.	.	.	.	.	.	.	.	.	.	.	.	.	.	.	.	.	.	.	.	.	.	.	.	.
.	.	.	.	.	.	.	.	.	.	.	.	.	.	.	.	.	.	.	.	.	.	.	.	.	.	.	.	.
4r	.	4ryy	.	.	.	4r	.	4r	.	4r	.	.	.	.	.	.	.	.	.	.	.	.	.	.	.	.	.	.
.	.	.	.	.	.	.	.	.	.	.	.	.	.	.	.	.	.	.	.	.	.	.	.	.	.	.	.	.
.	.	.	.	.	.	.	.	.	.	.	.	.	.	.	.	.	.	.	.	.	.	.	.	.	.	.	.	.
.	.	.	.	.	.	.	.	.	.	.	.	.	.	.	.	.	.	.	.	.	.	.	.	.	.	.	.	.
.	.	.	.	.	.	.	.	.	.	.	.	.	.	.	.	.	.	.	.	.	.	.	.	.	.	.	.	.
.	.	.	.	.	.	.	.	.	.	.	.	.	.	.	.	.	.	.	.	.	.	.	.	.	.	.	.	.
.	.	.	.	.	.	.	.	.	.	.	.	.	.	.	.	.	.	.	.	.	.	.	.	.	.	.	.	.
.	.	.	.	.	.	.	.	.	.	.	.	.	.	.	.	.	.	.	.	.	.	.	.	.	.	.	.	.
8r	.	8ryy	.	.	.	8r	.	8r	.	8r	.	.	.	.	.	.	.	.	.	.	.	.	.	.	.	.	.	.
.	.	.	.	.	.	.	.	.	.	.	.	.	.	.	.	.	.	.	.	.	.	.	.	.	.	.	.	.
.	.	.	.	.	.	.	.	.	.	.	.	.	.	.	.	.	.	.	.	.	.	.	.	.	.	.	.	.
.	.	.	.	.	.	.	.	.	.	.	.	.	.	.	.	.	.	.	.	.	.	.	.	.	.	.	.	.
*	*	*	*	*	*	*	*	*	*	*	*	*	*	*	*	*	*	*	*	*v	*v	*	*	*	*	*	*	*
=6||	=6||	=6||	=6||	=6||	=6||	=6||	=6||	=6||	=6||	=6||	=6||	=6||	=6||	=6||	=6||	=6||	=6||	=6||	=6||	=6||	=6||	=6||	=6||	=6||	=6||	=6||	=6||
*M2/4	*	*M2/4	*	*M2/4	*	*M2/4	*	*M2/4	*	*M2/4	*	*M2/4	*	*M2/4	*	*M2/4	*	*M2/4	*	*M2/4	*	*M2/4	*	*M2/4	*	*M2/4	*
!LO:TX:b:i:t=arco	!LO:DY:b:rj	!LO:TX:b:i:t=arco	!LO:DY:b:rj	!	!	!LO:TX:i:b:t=arco	!	!	!	!LO:TX:i:b:t=arco	!LO:DY:b:rj	!	!LO:DY:b:rj	!	!	!	!	!	!	!	!LO:DY:b	!	!	!	!	!	!LO:DY:b
8A 8AA\	f	8Ayy 8AA\yy	f	4r;>	.	8a 8e 8c#\	.	8cc# 8e 8A/	.	8aa 8cc# 8e\	f	8AA/	f	8AA/	.	8a/	.	8A\	.	8ee 8a/	sf	8ee 8cc#\	.	8aa\	.	8aa\	sf
!	!	!	!	!	!	!	!	!	!	!	!	!	!	!	!	!	!	!	!	!	!	!	!	!	!	!LO:TX:a:t=P:problem=segno nad pauzą	!
!	!	!	!	!	!	!	!	!	!	!	!	!	!	!	!	!	!	!	!	!	!	!	!	!	!	!LO:TX:t=[segno]	!
8r;>	.	8r;>yy	.	.	.	8r;>	.	8r;>	.	8r;>	.	8r;>	.	8r;>	.	8r;>	.	8r;>	.	8r;>	.	8r;>	.	8r;>	.	8r;	.
!	!	!	!	!	!	!	!	!	!	!	!LO:DY:b:rj	!	!	!	!	!	!	!	!	!	!	!	!	!	!	!	!LO:DY:b:rj
*>B	*	*>B	*	*>B	*	*>B	*	*>B	*	*>B	*	*>B	*	*>B	*	*>B	*	*>B	*	*>B	*	*>B	*	*>B	*	*>B	*
4r	.	4ryy	.	8f#/	Ah	4r	.	(<8d'</L	.	(<8f#'</L	p	4r	.	4r	.	4r	.	4r	.	4r	.	4r	.	8dd'>\L	.	8ff#'>\L	p
.	.	.	.	8g/	to	.	.	8e'</J)	.	8g'</J)	.	.	.	.	.	.	.	.	.	.	.	.	.	8ee'>\J	.	8gg'>\J	.
=7	=7	=7	=7	=7	=7	=7	=7	=7	=7	=7	=7	=7	=7	=7	=7	=7	=7	=7	=7	=7	=7	=7	=7	=7	=7	=7	=7
!	!LO:DY:b:rj	!	!LO:DY:b:rj	!	!	!	!	!	!	!	!	!	!	!	!	!	!	!	!	!	!	!	!	!	!	!	!
8D\	p	8D\yy	p	8.b/	ist-	8r	p	8.g'</L	.	8.b|</L	.	2r	.	2r	.	2r	.	2r	.	2r	.	2r	.	8.gg\L	.	8.bb\L	.
8r	.	8ryy	.	.	.	8A/	.	.	.	.	.	.	.	.	.	.	.	.	.	.	.	.	.	.	.	.	.
.	.	.	.	16a/	-na	.	.	16f#'</Jk	.	16a|</Jk	.	.	.	.	.	.	.	.	.	.	.	.	.	16ff#\Jk	.	16aa\Jk	.
8D\	.	8D\yy	.	8a/	Nie-	8r	.	4f#/	.	8a|</L	.	.	.	.	.	.	.	.	.	.	.	.	.	8ff#\L	.	8aa\L	.
8r	.	8ryy	.	8dd\	-bios	8A/	.	.	.	8dd|</J	.	.	.	.	.	.	.	.	.	.	.	.	.	8ff#\J	.	8ddd\J	.
=8	=8	=8	=8	=8	=8	=8	=8	=8	=8	=8	=8	=8	=8	=8	=8	=8	=8	=8	=8	=8	=8	=8	=8	=8	=8	=8	=8
*	*	*	*	*	*	*	*	*	*	*	*	*	*	*	*	*	*	*	*	*	*	*^	*	*	*	*	*
!	!	!	!	!	!	!	!	!	!	!	!	!	!	!	!	!	!	!	!LO:DY:b:rj	!	!	!	!	!LO:DY:b:rj	!	!	!	!
4E\	.	4E\yy	.	8dd\	Ka-	2ryy	.	8.g/	.	(>8dd\L	.	2r	.	2r	.	2r	.	8.e\	p	2r	.	8.a/	8.g\	p	8.gg\	.	(>8ddd\L	.
.	.	.	.	16cc#\	-ra,	.	.	.	.	16cc#\Jk)	.	.	.	.	.	.	.	.	.	.	.	.	.	.	.	.	16ccc#\Jk)	.
.	.	.	.	16r	.	.	.	16r	.	16r	.	.	.	.	.	.	.	16r	.	.	.	16r	16ryy	.	16r	.	16r	.
4r	.	4ryy	.	8e/	Wszys-	.	.	8c#'</L	.	8e'</L	.	.	.	.	.	.	.	4r	.	.	.	4r	4ryy	.	8cc#'>\L	.	8ee'>\L	.
.	.	.	.	8f#/	-tkim	.	.	8d'</J	.	8f#'</J	.	.	.	.	.	.	.	.	.	.	.	.	.	.	8dd'>\J	.	8ff#'>\J	.
*	*	*	*	*	*	*	*	*	*	*	*	*	*	*	*	*	*	*	*	*	*	*v	*v	*	*	*	*	*
=9	=9	=9	=9	=9	=9	=9	=9	=9	=9	=9	=9	=9	=9	=9	=9	=9	=9	=9	=9	=9	=9	=9	=9	=9	=9	=9	=9
.	.	.	.	8qa/	.	.	.	(<8qf#/	.	(<8qa/	.	.	.	.	.	.	.	.	.	.	.	.	.	(<8qff#/	.	(<8qaa/	.
8C#/	.	8C#/yy	.	8.g/	gło-	2ryy	.	8.e/L)	.	8.g/L)	.	2r	.	2r	.	2r	.	2r	.	2r	.	2r	.	8.ee\L)	.	8.gg\L)	.
8r	.	8ryy	.	.	.	.	.	.	.	.	.	.	.	.	.	.	.	.	.	.	.	.	.	.	.	.	.
.	.	.	.	16f#/	-wę	.	.	16d#X|</Jk	.	16f#|</Jk	.	.	.	.	.	.	.	.	.	.	.	.	.	16dd#X'>\Jk	.	16ff#'>\Jk	.
8C#/	.	8C#/yy	.	8g/	dziś	.	.	8e|</L	.	8g|</L	.	.	.	.	.	.	.	.	.	.	.	.	.	8ee'>\L	.	8gg'>\L	.
8r	.	8ryy	.	8b/	za-	.	.	8g|</J	.	8b|</J	.	.	.	.	.	.	.	.	.	.	.	.	.	8gg'>\J	.	8bb'>\J	.
!!LO:PB:g=original
=10	=10	=10	=10	=10	=10	=10	=10	=10	=10	=10	=10	=10	=10	=10	=10	=10	=10	=10	=10	=10	=10	=10	=10	=10	=10	=10	=10
*	*	*	*	*	*	*	*	*	*	*	*	*	*	*	*	*	*	*	*	*	*	*^	*	*	*	*	*
8D\	.	8D\yy	.	8a/	-wra-	8r	.	(<8f#/L	.	(<8a/L	.	2r	.	2r	.	2r	.	8.d\	.	2r	.	8.a/	8.f#\	.	8ff#\L	.	(>8aa\L	.
8r	.	8ryy	.	16f#/	-ca,	8A/	.	16d/Jk)	.	16f#/Jk)	.	.	.	.	.	.	.	.	.	.	.	.	.	.	16dd\Jk	.	16ff#\Jk)	.
.	.	.	.	16r	.	.	.	16r	.	16r	.	.	.	.	.	.	.	16r	.	.	.	16r	16ryy	.	16r	.	16r	.
4r	.	4ryy	.	8f#/	E-	4r	.	8d'</L	.	8f#'</L	.	.	.	.	.	.	.	4r	.	.	.	4r	4ryy	.	8dd'>\L	.	8ff#'>\L	.
.	.	.	.	8g/	-lek-	.	.	8e'</J	.	8g'</J	.	.	.	.	.	.	.	.	.	.	.	.	.	.	8ee'>\J	.	8gg'>\J	.
*	*	*	*	*	*	*	*	*	*	*	*	*	*	*	*	*	*	*	*	*	*	*v	*v	*	*	*	*	*
=11	=11	=11	=11	=11	=11	=11	=11	=11	=11	=11	=11	=11	=11	=11	=11	=11	=11	=11	=11	=11	=11	=11	=11	=11	=11	=11	=11
8D\	.	8D\yy	.	8.b/	-trycz-	8r	.	8.g/L	.	8.b/L	.	2r	.	2r	.	2r	.	2r	.	2r	.	2r	.	8.gg\L	.	8.bb\L	.
8r	.	8ryy	.	.	.	8A/	.	.	.	.	.	.	.	.	.	.	.	.	.	.	.	.	.	.	.	.	.
.	.	.	.	16a/	-ność	.	.	16f#/Jk	.	16a/Jk	.	.	.	.	.	.	.	.	.	.	.	.	.	16ff#\Jk	.	16aa\Jk	.
8D\	.	8D\yy	.	8a/	al-	8r	.	4f#/	.	8a/L	.	.	.	.	.	.	.	.	.	.	.	.	.	4ff#\	.	8aa\L	.
8r	.	8ryy	.	8dd\	-bo	8A/	.	.	.	8dd/J	.	.	.	.	.	.	.	.	.	.	.	.	.	.	.	8ddd\J	.
=12	=12	=12	=12	=12	=12	=12	=12	=12	=12	=12	=12	=12	=12	=12	=12	=12	=12	=12	=12	=12	=12	=12	=12	=12	=12	=12	=12
*	*	*	*	*	*	*	*	*	*	*	*	*	*	*	*	*	*	*	*	*^	*	*	*	*	*	*	*
!	!	!	!	!	!	!	!	!	!	!	!	!	!	!	!	!	!	!	!	!	!	!LO:DY:b:rj	!	!	!	!	!	!
!	!	!	!	!	!	!	!	!	!	!	!	!	!	!	!	!	!	!	!	!	!	!LO:HP:a	!	!	!	!	!	!
8G\	.	8G\yy	.	8dd\	pa-	8r	.	8r	.	(<8dd^>/L	.	2r	.	2r	.	2r	.	2G\	.	2ee/	2b-X\	p >	2r	.	4gg\	.	(>8ddd\L	.
8r	.	8ryy	.	8e/	-ra,	8d\	.	8B-X/	.	8e/J)	.	.	.	.	.	.	.	.	.	.	.	.	.	.	.	.	8ee\J)	.
8G\	.	8G\yy	.	8r	.	8r	.	8r	.	8r	.	.	.	.	.	.	.	.	.	.	.	.	.	.	4r	.	4r	.
8r	.	8ryy	.	16e/	co	8d\	.	8B-/	.	8e/	.	.	.	.	.	.	.	.	.	.	.	]	.	.	.	.	.	.
.	.	.	.	16e/	to	.	.	.	.	.	.	.	.	.	.	.	.	.	.	.	.	.	.	.	.	.	.	.
=13	=13	=13	=13	=13	=13	=13	=13	=13	=13	=13	=13	=13	=13	=13	=13	=13	=13	=13	=13	=13	=13	=13	=13	=13	=13	=13	=13	=13
!	!	!	!	!	!	!	!	!	!	!	!	!	!	!	!	!	!	!	!	!LO:N:vis=2.	!	!	!	!	!	!	!	!
8G#X\	.	8G#X\yy	.	8f#/	prze-	8r	.	8r	.	8r	.	2r	.	2r	.	2r	.	(>2G#X\	.	(>2ee/	(<2bn\	.	2r	.	2r	.	2r	.
8r	.	8ryy	.	8e/	-strzeń	8d\	.	8Bn/	.	8e/	.	.	.	.	.	.	.	.	.	.	.	.	.	.	.	.	.	.
.	.	.	.	8qg#X/	.	.	.	.	.	.	.	.	.	.	.	.	.	.	.	.	.	.	.	.	.	.	.	.
8G#\	.	8G#\yy	.	8.f#/	i	8r	.	8r	.	8r	.	.	.	.	.	.	.	.	.	.	.	.	.	.	.	.	.	.
8r	.	8ryy	.	.	.	8d\	.	8B/	.	8e/	.	.	.	.	.	.	.	.	.	.	.	.	.	.	.	.	.	.
.	.	.	.	16e/	czas	.	.	.	.	.	.	.	.	.	.	.	.	.	.	.	.	.	.	.	.	.	.	.
=14	=14	=14	=14	=14	=14	=14	=14	=14	=14	=14	=14	=14	=14	=14	=14	=14	=14	=14	=14	=14	=14	=14	=14	=14	=14	=14	=14	=14
!LO:TX:a:t=P:problem=mixedbeam	!	!LO:TX:a:t=P:problem=mixedbeam	!	!	!	!	!	!	!	!	!	!	!	!	!	!	!	!LO:TX:a:t=P:problem=mixedbeam	!	!	!	!	!	!	!	!	!	!
8A\L	.	8A\Lyy	.	8e/	skra-	8r	.	8r	.	8r	.	2r	.	2E\	.	4r	.	8A\L)	.	8ee/L)	8cc#\L)	.	2r	.	4r	.	4r	.
!	!LO:DY:b	!	!LO:DY:b	!	!	!	!LO:DY:b:rj	!	!	!	!LO:DY:b:rj	!	!	!	!	!	!	!	!	!	!	!LO:DY:b	!	!	!	!	!	!
8AA/J	sf	8AA/Jyy	sf	8a/	-ca	8a 8e 8A\	sf	8e 8A/	.	8a 8c#/	sf	.	.	.	.	.	.	8AA'</J	.	8ee'>/J	8cc#\J	sf	.	.	.	.	.	.
4r	.	4ryy	.	4r	.	4r	.	4r	.	4r	.	.	.	.	.	8e'</L	.	4r	.	4r	4ryy	.	.	.	8ee'>\L	.	8eee'>\L	.
.	.	.	.	.	.	.	.	.	.	.	.	.	.	.	.	8e'</J	.	.	.	.	.	.	.	.	8ee'>\J	.	8eee'>\J	.
!!LO:PB:g=original
=15	=15	=15	=15	=15	=15	=15	=15	=15	=15	=15	=15	=15	=15	=15	=15	=15	=15	=15	=15	=15	=15	=15	=15	=15	=15	=15	=15	=15
*2\right	*	*2\right	*	*	*	*	*	*	*	*	*	*	*	*	*	*	*	*	*	*	*	*	*	*	*	*	*	*
.	.	.	.	.	.	.	.	.	.	.	.	.	.	.	.	(<8qg#X/	.	.	.	.	.	.	.	.	(<8qgg#X/	.	(<8qggg#X/	.
2E^<\	.	2E^<\yy	.	2r	.	2B/	.	2e^< 2d/	.	2g#X^</	.	2r	.	2E\	.	8.f#/L)	.	(>2B\	.	2ee/	2ee\	.	2g# 2d/	.	8.ff#\L)	.	8.fff#\L)	.
.	.	.	.	.	.	.	.	.	.	.	.	.	.	.	.	16e/Jk	.	.	.	.	.	.	.	.	16ee\Jk	.	16eee|>\Jk	.
.	.	.	.	.	.	.	.	.	.	.	.	.	.	.	.	(<16f#/LL	.	.	.	.	.	.	.	.	(>16ff#\LL	.	(>16fff#\LL	.
.	.	.	.	.	.	.	.	.	.	.	.	.	.	.	.	16e/	.	.	.	.	.	.	.	.	16ee\	.	16eee\	.
.	.	.	.	.	.	.	.	.	.	.	.	.	.	.	.	16d/	.	.	.	.	.	.	.	.	16dd\	.	16ddd\	.
.	.	.	.	.	.	.	.	.	.	.	.	.	.	.	.	16B/JJ)	.	.	.	.	.	.	.	.	16b\JJ)	.	16bb\JJ	.
*	*	*	*	*	*	*	*	*	*	*	*	*	*	*	*	*	*	*	*	*v	*v	*	*	*	*	*	*	*
=16	=16	=16	=16	=16	=16	=16	=16	=16	=16	=16	=16	=16	=16	=16	=16	=16	=16	=16	=16	=16	=16	=16	=16	=16	=16	=16	=16
*	*	*	*	*	*	*	*	*Xtremolo	*	*	*	*	*	*	*	*	*	*	*	*	*	*	*	*	*	*	*
!LO:TX:a:t=P:problem=mixedbeam	!	!	!	!	!	!LO:TX:a:t=P:problem=mixedbeam	!	!	!	!	!	!	!	!LO:TX:a:t=P:problem=mixedbeam	!	!	!	!	!	!	!	!	!	!	!	!	!LO:DY:b:rj
8A\L	.	8A\Lyy	.	4r	.	8A/L	.	8eL 8c#/	.	8a\L	.	8r	.	8A\L	.	8A/L	.	8A\L)	.	8eeL 8a/	.	8aL 8c#/	.	8a\L	.	8aa\L)	f
!	!LO:DY:b:rj	!	!LO:DY:b:rj	!	!	!	!LO:DY:b:rj	!	!	!	!LO:DY:b:rj	!	!	!	!	!	!	!	!	!	!	!	!	!	!	!	!
8AA/J	f	8AA/Jyy	f	.	.	8aJ 8c#\	f	8eJ 8c#/	.	8aaJ 8cc#\	f	8AA/	.	8AA/J	.	8a/J	.	8A'>\J	.	8eeJ 8a/	.	8aJ 8c#/	.	8aa\J	.	8aaa'>\J	.
4r	.	4ryy	.	8a/	Wszy-	4r	.	4r	.	4r	.	4r	.	4r	.	4r	.	4r	.	4r	.	4r	.	4r	.	4r	.
.	.	.	.	8a/	-scy	.	.	.	.	.	.	.	.	.	.	.	.	.	.	.	.	.	.	.	.	.	.
=17	=17	=17	=17	=17	=17	=17	=17	=17	=17	=17	=17	=17	=17	=17	=17	=17	=17	=17	=17	=17	=17	=17	=17	=17	=17	=17	=17
!	!	!	!	!	!	!	!	!LO:TX:i:a:t=unis	!	!	!	!	!	!	!	!	!	!	!	!	!	!	!	!	!	!	!
(<32qqA/LLL	.	(<32qqA/LLLyy	.	.	.	(<32qqA/LLL	.	(<32qqa/LLLyy	.	(<32qqa/LLL	.	.	.	.	.	.	.	.	.	.	.	.	.	.	.	.	.
32qqB/	.	32qqB/yy	.	.	.	32qqB/	.	32qqb/yy	.	32qqb/	.	.	.	.	.	.	.	.	.	.	.	.	.	.	.	.	.
!	!LO:DY:b	!	!LO:DY:b	!	!	!	!	!	!	!	!	!	!	!	!	!	!	!	!	!	!	!	!	!	!	!	!
32qqc#/JJJ	sf	32qqc#/JJJyy	sf	.	.	32qqc#/JJJ	.	32qqcc#/JJJyy	.	32qqcc#/JJJ	.	.	.	.	.	.	.	.	.	.	.	.	.	.	.	.	.
!	!LO:DY:b	!	!LO:DY:b	!	!	!LO:TX:a:t=P:problem=mixedbeam	!	!LO:TX:a:t=P:problem=mixedbeam	!LO:DY:b:rj	!LO:TX:a:t=P:problem=mixedbeam	!LO:DY:b:rj	!	!	!	!	!	!	!	!	!	!	!	!	!	!	!	!
8.d\L)	p	8.d\L)yy	p	8.dd\	Krzy-	8.d\L)	.	8.dd\L)yy	sf	8.dd\L)	sf	2ryy	.	2r	.	2r	.	2r	.	2r	.	2r	.	2r	.	2r	.
!	!	!	!	!	!	!	!	!	!LO:DY:b:rj	!	!LO:DY:b:rj	!	!	!	!	!	!	!	!	!	!	!	!	!	!	!	!
16D\Jk	.	16D\Jkyy	.	16d/	-czą	16D/Jk	.	16d/Jkyy	p	16d/Jk	p	.	.	.	.	.	.	.	.	.	.	.	.	.	.	.	.
8Fn\L	.	8Fn\Lyy	.	8fn/	to	8Fn/L	.	8fn/Lyy	.	8fn/L	.	.	.	.	.	.	.	.	.	.	.	.	.	.	.	.	.
8G\J	.	8G\Jyy	.	8g/	z ha-	8G/J	.	8g/Jyy	.	8g/J	.	.	.	.	.	.	.	.	.	.	.	.	.	.	.	.	.
=18	=18	=18	=18	=18	=18	=18	=18	=18	=18	=18	=18	=18	=18	=18	=18	=18	=18	=18	=18	=18	=18	=18	=18	=18	=18	=18	=18
4A\	.	4A\yy	.	8a/	-ła-	4A/	.	4a/yy	.	4a/	.	2r	.	8r	.	8r	.	8r	.	8r	.	2r	.	2r	.	2r	.
!	!	!	!	!	!	!	!	!	!	!	!	!	!	!	!LO:DY:b:rj	!	!	!	!LO:DY:b:rj	!	!LO:DY:b:rj	!	!	!	!	!	!
.	.	.	.	8a/	-sem,	.	.	.	.	.	.	.	.	4A\	f	4a/	.	4c#X^<\	f	4ee^< 4a/	f	.	.	.	.	.	.
4r	.	4ryy	.	8r	.	4r	.	4ryy	.	4r	.	.	.	.	.	.	.	.	.	.	.	.	.	.	.	.	.
.	.	.	.	16a/	I	.	.	.	.	.	.	.	.	8r	.	8r	.	8r	.	8r	.	.	.	.	.	.	.
.	.	.	.	16a/	mę-	.	.	.	.	.	.	.	.	.	.	.	.	.	.	.	.	.	.	.	.	.	.
=19	=19	=19	=19	=19	=19	=19	=19	=19	=19	=19	=19	=19	=19	=19	=19	=19	=19	=19	=19	=19	=19	=19	=19	=19	=19	=19	=19
!	!LO:HP:b	!	!LO:HP:b	!	!	!	!	!	!	!	!LO:HP:a	!	!	!	!	!	!	!	!	!	!	!	!	!	!	!	!
8.D/L	<	8.D/Lyy	<	8.d/	-drsze-	8.d\L	.	8.d/L	.	8.d/L	<	2r	.	2r	.	2r	.	2r	.	2r	.	2r	.	2r	.	2r	.
16Cn/Jk	.	16Cn/Jkyy	.	16e/	-mi	16cn\Jk	.	16e/Jk	.	16e/Jk	.	.	.	.	.	.	.	.	.	.	.	.	.	.	.	.	.
8BB/L	.	8BB/Lyy	.	8fn/	wciąż	8B/L	.	4d/	.	8fn/L	.	.	.	.	.	.	.	.	.	.	.	.	.	.	.	.	.
8BB-X/J	[[	8BB-X/Jyy	[[	8g/	się	8B-X/J	.	.	.	8g/J	[[	.	.	.	.	.	.	.	.	.	.	.	.	.	.	.	.
!!LO:PB:g=original
=20	=20	=20	=20	=20	=20	=20	=20	=20	=20	=20	=20	=20	=20	=20	=20	=20	=20	=20	=20	=20	=20	=20	=20	=20	=20	=20	=20
!LO:TX:a:t=P:problem=mixedbeam	!	!	!	!	!	!	!	!	!	!	!	!	!	!	!	!	!	!	!	!	!	!	!	!	!	!	!
8AA/L	.	8AA/Lyy	.	8a/	mie-	8A/L	.	8c#X/L	.	8a/L	.	4r	.	4r	.	4r	.	4r	.	4r	.	4r	.	4r	.	4r	.
8A\J	.	8A\Jyy	.	8A/	-nią	8A/J	.	8A/J	.	8A/J	.	.	.	.	.	.	.	.	.	.	.	.	.	.	.	.	.
8r;>	.	8r;>yy	.	8r;>	.	8r;>	.	8r;>	.	8r;>	.	8r;>	.	8r;>	.	8r;>	.	8r;>	.	8r;>	.	8r;>	.	8r;>	.	8r;>	.
8r	.	8ryy	.	16a/	A	8r	.	8r	.	8r	.	8r	.	8r	.	8r	.	8r	.	8r	.	8r	.	8r	.	8r	.
.	.	.	.	16b/	ja	.	.	.	.	.	.	.	.	.	.	.	.	.	.	.	.	.	.	.	.	.	.
=21	=21	=21	=21	=21	=21	=21	=21	=21	=21	=21	=21	=21	=21	=21	=21	=21	=21	=21	=21	=21	=21	=21	=21	=21	=21	=21	=21
*	*	*	*	*	*	*	*	*	*	*Xtremolo	*	*	*	*	*	*	*	*	*	*	*	*	*	*	*	*	*
!	!LO:DY:b:rj	!	!LO:DY:b:rj	!	!	!	!	!	!	!	!	!	!	!	!	!	!	!	!	!	!	!	!	!	!	!	!
8C#X/	p	8C#X/yy	p	8a/	mó-	8r	.	8r	.	8r	.	2r	.	2r	.	2r	.	8r	.	8r	.	8r	.	8r	.	8r	.
!	!	!	!	!	!	!	!	!	!	!	!LO:DY:b:rj	!	!	!	!	!	!	!	!LO:DY:b:rj	!	!	!	!LO:DY:b:rj	!	!	!	!LO:DY:b:rj
8r	.	8ryy	.	8e/	-wię:	(<8A'</L	.	(<8e'</L	.	(<8gL 8A'</	p	.	.	.	.	.	.	4C#X/	p	4ee 4a/	.	4g 4e/	p	8e/L	.	(>8ee\L	p
4r	.	4ryy	.	8r	.	8A'</J)	.	8e'</J)	.	8gJ 8A'</)	.	.	.	.	.	.	.	.	.	.	.	.	.	8a/J	.	8aa\J)	.
.	.	.	.	16a/	czas	8r	.	8r	.	8r	.	.	.	.	.	.	.	8r	.	8r	.	8r	.	8r	.	8r	.
.	.	.	.	16b/	iest	.	.	.	.	.	.	.	.	.	.	.	.	.	.	.	.	.	.	.	.	.	.
=22	=22	=22	=22	=22	=22	=22	=22	=22	=22	=22	=22	=22	=22	=22	=22	=22	=22	=22	=22	=22	=22	=22	=22	=22	=22	=22	=22
8D/	.	8D/yy	.	8a/	cza-	8r	.	8r	.	8r	.	2r	.	2r	.	2r	.	8r	.	8r	.	8r	.	8r	.	8r	.
8r	.	8ryy	.	8f#/	-sem,	(<8A'</L	.	(<8d'</L	.	(<8f#L 8A'</	.	.	.	.	.	.	.	4D/	.	4dd 4a/	.	4f# 4d/	.	(<8f#/L	.	(>8ff#\L	.
4r	.	4ryy	.	8r	.	8A'</J)	.	8d'</J)	.	8f#J 8A'</)	.	.	.	.	.	.	.	.	.	.	.	.	.	8a/J)	.	8aa\J)	.
.	.	.	.	16d/	a	8r	.	8r	.	8r	.	.	.	.	.	.	.	8r	.	8r	.	8r	.	8r	.	8r	.
.	.	.	.	16d/	zaś	.	.	.	.	.	.	.	.	.	.	.	.	.	.	.	.	.	.	.	.	.	.
=23	=23	=23	=23	=23	=23	=23	=23	=23	=23	=23	=23	=23	=23	=23	=23	=23	=23	=23	=23	=23	=23	=23	=23	=23	=23	=23	=23
8GG/	.	8GG/yy	.	8.b/	prze-	8r	.	8r	.	8r	.	2r	.	2r	.	2r	.	2r	.	2r	.	2r	.	2r	.	2r	.
8r	.	8ryy	.	.	.	8e\	.	8e/	.	8g 8B/	.	.	.	.	.	.	.	.	.	.	.	.	.	.	.	.	.
.	.	.	.	16g/	-strzeń	.	.	.	.	.	.	.	.	.	.	.	.	.	.	.	.	.	.	.	.	.	.
8AA/	.	8AA/yy	.	8.e/	iest	8r	.	8r	.	8r	.	.	.	.	.	.	.	.	.	.	.	.	.	.	.	.	.
8r	.	8ryy	.	.	.	8e\	.	8c#X/	.	8g 8A/	.	.	.	.	.	.	.	.	.	.	.	.	.	.	.	.	.
.	.	.	.	16a/	prze-	.	.	.	.	.	.	.	.	.	.	.	.	.	.	.	.	.	.	.	.	.	.
=24	=24	=24	=24	=24	=24	=24	=24	=24	=24	=24	=24	=24	=24	=24	=24	=24	=24	=24	=24	=24	=24	=24	=24	=24	=24	=24	=24
*	*	*	*	*	*	*	*	*	*	*	*	*^	*	*	*	*	*	*	*	*	*	*	*	*	*	*	*
!	!	!	!	!	!	!	!	!	!	!	!	!LO:TX:i:a:t=Triangolo	!	!	!	!	!	!	!	!	!	!	!	!	!	!	!	!
8D\	.	8D\yy	.	16a/	-strze-	8r	.	8r	.	8r	.	4r	2rGG	.	2r	.	2r	.	2r	.	2r	.	2r	.	2r	.	2r	.
.	.	.	.	16d/	-nią	.	.	.	.	.	.	.	.	.	.	.	.	.	.	.	.	.	.	.	.	.	.	.
8r	.	8ryy	.	8r	.	8d\	.	8d/	.	8f# 8A/	.	.	.	.	.	.	.	.	.	.	.	.	.	.	.	.	.	.
4r	.	4ryy	.	8a/	.	4r	.	4r	.	4r	.	8G/	.	.	.	.	.	.	.	.	.	.	.	.	.	.	.	.
.	.	.	.	8r	.	.	.	.	.	.	.	8r	.	.	.	.	.	.	.	.	.	.	.	.	.	.	.	.
=25	=25	=25	=25	=25	=25	=25	=25	=25	=25	=25	=25	=25	=25	=25	=25	=25	=25	=25	=25	=25	=25	=25	=25	=25	=25	=25	=25	=25
2r	.	2ryy	.	8a/	din	2r	.	2r	.	2r	.	8G/	2rGG	.	2r	.	2r	.	2r	.	2r	.	2r	.	2r	.	2r	.
.	.	.	.	8r	.	.	.	.	.	.	.	8r	.	.	.	.	.	.	.	.	.	.	.	.	.	.	.	.
.	.	.	.	8a/	din	.	.	.	.	.	.	8G/	.	.	.	.	.	.	.	.	.	.	.	.	.	.	.	.
.	.	.	.	8r	.	.	.	.	.	.	.	8r	.	.	.	.	.	.	.	.	.	.	.	.	.	.	.	.
*	*	*	*	*	*	*	*	*	*	*	*	*v	*v	*	*	*	*	*	*	*	*	*	*	*	*	*	*	*
!!LO:PB:g=original
=26||	=26||	=26||	=26||	=26||	=26||	=26||	=26||	=26||	=26||	=26||	=26||	=26||	=26||	=26||	=26||	=26||	=26||	=26||	=26||	=26||	=26||	=26||	=26||	=26||	=26||	=26||	=26||
*M6/8	*	*M6/8	*	*M6/8	*	*M6/8	*	*M6/8	*	*M6/8	*	*M6/8	*	*M6/8	*	*M6/8	*	*M6/8	*	*M6/8	*	*M6/8	*	*M6/8	*	*M6/8	*
!	!	!LO:TX:b:i:t=pizz	!	!	!	!	!	!	!	!	!	!	!	!	!	!	!	!	!	!	!	!	!	!	!	!	!
!	!	!LO:TX:a:t=P:problem=mixedbeam	!	!	!	!	!LO:DY:b:rj	!	!	!	!LO:DY:a	!	!LO:HP:b	!	!	!	!	!	!	!	!	!	!LO:DY:b:rj	!	!	!	!
8AA/	.	8AA/L	.	4a/	Warcz-	16A/LL	p	4c#X/	.	(<4a 4g'</	pp	2.AATT/	<	2.r	.	2.r	.	(<16AA/LL	.	8r	.	16A/LL	p	2.r	.	2.r	.
.	.	.	.	.	.	.	.	.	.	.	.	.	.	.	.	.	.	.	.	.	.	.	.	.	.	.	.
!	!	!	!	!	!	!	!	!	!	!	!	!	!	!	!	!	!	!	!LO:HP:b	!	!	!	!LO:HP:a	!	!	!	!
.	.	.	.	.	.	16B/	.	.	.	.	.	.	.	.	.	.	.	16BB/	<	.	.	(<16B/	<	.	.	.	.
.	.	.	.	.	.	.	.	.	.	.	.	.	.	.	.	.	.	.	.	.	.	.	.	.	.	.	.
!	!	!	!	!	!	!	!LO:HP:b	!	!	!	!	!	!	!	!	!	!	!	!	!	!	!	!	!	!	!	!
8r	.	8A\	.	.	.	(<16cn/	<	.	.	.	.	.	.	.	.	.	.	16Cn/	.	8r	.	16cX/	.	.	.	.	.
.	.	.	.	.	.	.	.	.	.	.	.	.	.	.	.	.	.	.	.	.	.	.	.	.	.	.	.
.	.	.	.	.	.	16c#X/	.	.	.	.	.	.	.	.	.	.	.	16C#X/	.	.	.	16c#/	.	.	.	.	.
.	.	.	.	.	.	.	.	.	.	.	.	.	.	.	.	.	.	.	.	.	.	.	.	.	.	.	.
8r	.	8A\J	.	8a/	-cie	16d/	.	8c#/	.	8a 8g'</)	.	.	.	.	.	.	.	16D/	.	8gg 8ee\	.	16d/	.	.	.	.	.
.	.	.	.	.	.	.	.	.	.	.	.	.	.	.	.	.	.	.	.	.	.	.	.	.	.	.	.
.	.	.	.	.	.	16d#X/JJ	.	.	.	.	.	.	.	.	.	.	.	16D#X/JJ	.	.	.	16d#X/JJ	.	.	.	.	.
.	.	.	.	.	.	.	.	.	.	.	.	.	.	.	.	.	.	.	.	.	.	.	.	.	.	.	.
*	*	*rep	*	*	*	*	*	*	*	*	*	*	*	*	*	*	*	*	*	*	*	*	*	*	*	*	*
!	!	!LO:TX:a:t=P:problem=mixedbeam	!	!	!	!	!LO:HP:b	!	!	!	!	!	!LO:HP:b	!	!	!	!	!	!LO:HP:b	!	!	!	!LO:HP:a	!	!	!	!
8AA/	.	8AA/L	.	4a/	warcz-	16e/LL	[ >	4c#/	.	(<4a 4g'</	.	.	[ >	.	.	.	.	16E/LL	[ >	4.gg 4.ee\	.	16e/LL	[ >	.	.	.	.
.	.	.	.	.	.	.	.	.	.	.	.	.	.	.	.	.	.	.	.	.	.	.	.	.	.	.	.
.	.	.	.	.	.	16dn/	.	.	.	.	.	.	.	.	.	.	.	16Dn/	.	.	.	16d/	.	.	.	.	.
.	.	.	.	.	.	.	.	.	.	.	.	.	.	.	.	.	.	.	.	.	.	.	.	.	.	.	.
8r	.	8A\	.	.	.	16c#/	.	.	.	.	.	.	.	.	.	.	.	16C#/	.	.	.	16c#/	.	.	.	.	.
.	.	.	.	.	.	.	.	.	.	.	.	.	.	.	.	.	.	.	.	.	.	.	.	.	.	.	.
.	.	.	.	.	.	16cn/)	]	.	.	.	.	.	.	.	.	.	.	16Cn/	.	.	.	16cX/	.	.	.	.	.
.	.	.	.	.	.	.	.	.	.	.	.	.	.	.	.	.	.	.	.	.	.	.	.	.	.	.	.
8r	.	8A\J	.	8a/	-cie	16B/	.	8c#/	.	8a 8g'</)	.	.	.	.	.	.	.	16BB/	]	.	.	16B/	]	.	.	.	.
.	.	.	.	.	.	.	.	.	.	.	.	.	.	.	.	.	.	.	.	.	.	.	.	.	.	.	.
.	.	.	.	.	.	16B-X/JJ	.	.	.	.	.	.	.	.	.	.	.	16BB-X/JJ)	.	.	.	16B-X/JJ)	.	.	.	.	.
.	.	.	.	.	.	.	.	.	.	.	.	.	]]	.	.	.	.	.	.	.	.	.	.	.	.	.	.
*	*	*Xrep	*	*	*	*	*	*	*	*	*	*	*	*	*	*	*	*	*	*	*	*	*	*	*	*	*
=27	=27	=27	=27	=27	=27	=27	=27	=27	=27	=27	=27	=27	=27	=27	=27	=27	=27	=27	=27	=27	=27	=27	=27	=27	=27	=27	=27
8D\	.	8D\L	.	4f#/	szyb-	8A/	.	4d/	.	4f#/	.	8AA/	.	2.r	.	2.r	.	8AA/	.	8r	.	8A/	.	4r	.	4r	.
8r	.	8A\	.	.	.	8r	.	.	.	.	.	8r	.	.	.	.	.	8r	.	8r	.	8r	.	.	.	.	.
8r	.	8A\J	.	8a/	-kie	8r	.	8f#/	.	8a/	.	8r	.	.	.	.	.	8r	.	8ff# 8dd\	.	8r	.	8r	.	8r	.
.	.	.	.	.	.	.	.	.	.	.	.	.	.	.	.	.	.	.	.	.	.	.	.	(<32qqa/LLL	.	(<32qqaa/LLL	.
.	.	.	.	.	.	.	.	.	.	.	.	.	.	.	.	.	.	.	.	.	.	.	.	32qqb/	.	32qqbb/	.
.	.	.	.	.	.	.	.	.	.	.	.	.	.	.	.	.	.	.	.	.	.	.	.	32qqcc#/JJJ	.	32qqccc#/JJJ	.
*	*	*rep	*	*	*	*	*	*	*	*	*	*	*	*	*	*	*	*	*	*	*	*	*	*	*	*	*
8D\	.	8D\L	.	4dd\	Ko-	4r	.	4f#/	.	(>4dd\	.	4r	.	.	.	.	.	4r	.	4.ff# 4.dd\	.	4r	.	4dd\)	.	4ddd\)	.
8r	.	8A\	.	.	.	.	.	.	.	.	.	.	.	.	.	.	.	.	.	.	.	.	.	.	.	.	.
8r	.	8A\J	.	8f#/	-ła	8r	.	8d/	.	8f#/)	.	8r	.	.	.	.	.	8r	.	.	.	8r	.	8r	.	8r	.
*	*	*Xrep	*	*	*	*	*	*	*	*	*	*	*	*	*	*	*	*	*	*	*	*	*	*	*	*	*
=28	=28	=28	=28	=28	=28	=28	=28	=28	=28	=28	=28	=28	=28	=28	=28	=28	=28	=28	=28	=28	=28	=28	=28	=28	=28	=28	=28
!	!	!LO:TX:a:t=P:problem=mixedbeam	!	!	!	!	!	!	!	!	!	!	!LO:HP:b	!	!	!	!	!	!	!	!	!	!LO:DY:b:rj	!	!	!	!
8AA/	.	8AA/L	.	4a/	Już	16A/LL	.	4c#/	.	(<4a 4g'</	.	2.AATT/	<	2.r	.	2.r	.	(>16AA/LL	.	8r	.	(>16A/LL	p	2.r	.	2.r	.
.	.	.	.	.	.	.	.	.	.	.	.	.	.	.	.	.	.	.	.	.	.	.	.	.	.	.	.
!	!	!	!	!	!	!	!	!	!	!	!	!	!	!	!	!	!	!	!LO:HP:b	!	!	!	!LO:HP:b	!	!	!	!
.	.	.	.	.	.	16B/	.	.	.	.	.	.	.	.	.	.	.	16BB/	<	.	.	16B/	<	.	.	.	.
.	.	.	.	.	.	.	.	.	.	.	.	.	.	.	.	.	.	.	.	.	.	.	.	.	.	.	.
!	!	!	!	!	!	!	!LO:HP:b	!	!	!	!	!	!	!	!	!	!	!	!	!	!	!	!	!	!	!	!
8r	.	8A\	.	.	.	(<16cn/	<	.	.	.	.	.	.	.	.	.	.	16Cn/	.	8r	.	16cX/	.	.	.	.	.
.	.	.	.	.	.	.	.	.	.	.	.	.	.	.	.	.	.	.	.	.	.	.	.	.	.	.	.
.	.	.	.	.	.	16c#X/	.	.	.	.	.	.	.	.	.	.	.	16C#X/	.	.	.	16c#/	.	.	.	.	.
.	.	.	.	.	.	.	.	.	.	.	.	.	.	.	.	.	.	.	.	.	.	.	.	.	.	.	.
8r	.	8A\J	.	8a/	nic	16d/	.	8c#/	.	8a 8g'</)	.	.	.	.	.	.	.	16D/	.	8gg 8ee\	.	16d/	.	.	.	.	.
.	.	.	.	.	.	.	.	.	.	.	.	.	.	.	.	.	.	.	.	.	.	.	.	.	.	.	.
.	.	.	.	.	.	16d#X/JJ	.	.	.	.	.	.	.	.	.	.	.	16D#X/JJ	.	.	.	16d#X/JJ	.	.	.	.	.
.	.	.	.	.	.	.	.	.	.	.	.	.	.	.	.	.	.	.	.	.	.	.	.	.	.	.	.
*	*	*rep	*	*	*	*	*	*	*	*	*	*	*	*	*	*	*	*	*	*	*	*	*	*	*	*	*
!	!	!LO:TX:a:t=P:problem=mixedbeam	!	!	!	!	!LO:HP:b	!	!	!	!	!	!LO:HP:b	!	!	!	!	!	!LO:HP:b	!	!	!	!LO:HP:b	!	!	!	!
8AA/	.	8AA/L	.	4a/	ws[[z]]trzy-	16e/LL	[ >	4c#/	.	(<4a 4g'</	.	.	[ >	.	.	.	.	16E/LL	[ >	4.gg 4.ee\	.	16e/LL	[ >	.	.	.	.
.	.	.	.	.	.	.	.	.	.	.	.	.	.	.	.	.	.	.	.	.	.	.	.	.	.	.	.
.	.	.	.	.	.	16dn/	.	.	.	.	.	.	.	.	.	.	.	16Dn/	.	.	.	16d/	.	.	.	.	.
.	.	.	.	.	.	.	.	.	.	.	.	.	.	.	.	.	.	.	.	.	.	.	.	.	.	.	.
8r	.	8A\	.	.	.	16c#/	.	.	.	.	.	.	.	.	.	.	.	16C#/	.	.	.	16c#/	.	.	.	.	.
.	.	.	.	.	.	.	.	.	.	.	.	.	.	.	.	.	.	.	.	.	.	.	.	.	.	.	.
.	.	.	.	.	.	16cn/)	.	.	.	.	.	.	.	.	.	.	.	16Cn/	]	.	.	16cX/	.	.	.	.	.
.	.	.	.	.	.	.	.	.	.	.	.	.	.	.	.	.	.	.	.	.	.	.	.	.	.	.	.
8r	.	8A\J	.	8a/	-mać	16B/	]	8c#/	.	8a'</ 8g)	.	.	.	.	.	.	.	16BB/	.	.	.	16B/	]	.	.	.	.
.	.	.	.	.	.	.	.	.	.	.	.	.	.	.	.	.	.	.	.	.	.	.	.	.	.	.	.
.	.	.	.	.	.	16B-X/JJ	.	.	.	.	.	.	.	.	.	.	.	16BB-X/JJ)	.	.	.	16B-X/JJ)	.	.	.	.	.
.	.	.	.	.	.	.	.	.	.	.	.	.	]]	.	.	.	.	.	.	.	.	.	.	.	.	.	.
*	*	*Xrep	*	*	*	*	*	*	*	*	*	*	*	*	*	*	*	*	*	*	*	*	*	*	*	*	*
!!LO:PB:g=original
=29	=29	=29	=29	=29	=29	=29	=29	=29	=29	=29	=29	=29	=29	=29	=29	=29	=29	=29	=29	=29	=29	=29	=29	=29	=29	=29	=29
*	*	*	*	*	*	*	*	*	*	*	*	*	*	*	*	*	*	*	*	*	*	*^	*	*	*	*	*
8D\	.	8D\L	.	4f#/	was	8A/	.	4d/	.	4f#'</	.	8AA/	.	2.r	.	2.r	.	8AA/	.	8r	.	8A/	8A\	.	4r	.	4r	.
8r	.	8A\	.	.	.	8r	.	.	.	.	.	8r	.	.	.	.	.	8r	.	8r	.	8r	8ryy	.	.	.	.	.
8r	.	8A\J	.	8a/	nie	8r	.	8f#/	.	8a'</	.	8r	.	.	.	.	.	8r	.	8ff# 8dd\	.	8r	8ryy	.	8r	.	8r	.
!	!	!	!	!	!	!	!	!	!	!	!	!	!	!	!	!	!	!	!	!	!	!	!	!LO:DY:b	!	!	!	!
.	.	.	.	.	.	.	.	.	.	.	.	.	.	.	.	.	.	.	.	.	.	(<32qqa/LLL	.	f	(<32qqa/LLL	.	(<32qqaa/LLL	.
.	.	.	.	.	.	.	.	.	.	.	.	.	.	.	.	.	.	.	.	.	.	32qqb/	.	.	32qqb/	.	32qqbb/	.
.	.	.	.	.	.	.	.	.	.	.	.	.	.	.	.	.	.	.	.	.	.	32qqcc#/JJJ	.	.	32qqcc#/JJJ	.	32qqccc#/JJJ	.
*	*	*rep	*	*	*	*	*	*	*	*	*	*	*	*	*	*	*	*	*	*	*	*	*	*	*	*	*	*
8D\	.	8D\L	.	4dd\	zdo-	4r	.	(<4f#/	.	(>4dd\	.	4r	.	.	.	.	.	4r	.	4.ff# 4.dd\	.	4dd\)	4ryy	.	4dd\)	.	4ddd\)	.
8r	.	8A\	.	.	.	.	.	.	.	.	.	.	.	.	.	.	.	.	.	.	.	.	.	.	.	.	.	.
8r	.	8A\J	.	8f#/	-ła	8r	.	8d/)	.	8f#/)	.	8r	.	.	.	.	.	8r	.	.	.	8r	8ryy	.	8r	.	8r	.
*	*	*Xrep	*	*	*	*	*	*	*	*	*	*	*	*	*	*	*	*	*	*	*	*	*	*	*	*	*	*
*	*	*	*	*	*	*	*	*	*	*	*	*	*	*	*	*	*	*	*	*	*	*v	*v	*	*	*	*	*
=30	=30	=30	=30	=30	=30	=30	=30	=30	=30	=30	=30	=30	=30	=30	=30	=30	=30	=30	=30	=30	=30	=30	=30	=30	=30	=30	=30
*	*	*	*	*	*	*	*	*	*	*	*	*	*	*	*	*	*	*	*	*^	*	*	*	*	*	*	*
*	*	*tremolo	*	*	*	*tremolo	*	*tremolo	*	*tremolo	*	*	*	*	*	*	*	*	*	*	*	*	*	*	*	*	*	*
!	!	!	!	!	!	!	!	!LO:TX:i:a:t=ponticella	!	!	!	!	!	!	!	!	!LO:DY:b:rj	!	!	!	!	!LO:DY:b:rj	!	!	!	!	!	!
2.r	.	32G\LLL	.	4.b-X/	pff	32d\LLL	.	32g/LLL	.	32b-X^</LLL	.	2.r	.	2.r	.	4.d^</	p	4.G\	.	4.bb-X^<\ 4.gg\	4.ryy	p	2.r	.	2.r	.	2.r	.
.	.	32G\	.	.	.	32d\	.	32g/	.	32b-/	.	.	.	.	.	.	.	.	.	.	.	.	.	.	.	.	.	.
.	.	32G\	.	.	.	32d\	.	32g/	.	32b-/	.	.	.	.	.	.	.	.	.	.	.	.	.	.	.	.	.	.
.	.	32G\	.	.	.	32d\	.	32g/	.	32b-/	.	.	.	.	.	.	.	.	.	.	.	.	.	.	.	.	.	.
.	.	32G\	.	.	.	32d\	.	32g/	.	32b-/	.	.	.	.	.	.	.	.	.	.	.	.	.	.	.	.	.	.
.	.	32G\	.	.	.	32d\	.	32g/	.	32b-/	.	.	.	.	.	.	.	.	.	.	.	.	.	.	.	.	.	.
.	.	32G\	.	.	.	32d\	.	32g/	.	32b-/	.	.	.	.	.	.	.	.	.	.	.	.	.	.	.	.	.	.
.	.	32G\	.	.	.	32d\	.	32g/	.	32b-/	.	.	.	.	.	.	.	.	.	.	.	.	.	.	.	.	.	.
.	.	32G\	.	.	.	32d\	.	32g/	.	32b-/	.	.	.	.	.	.	.	.	.	.	.	.	.	.	.	.	.	.
.	.	32G\	.	.	.	32d\	.	32g/	.	32b-/	.	.	.	.	.	.	.	.	.	.	.	.	.	.	.	.	.	.
.	.	32G\	.	.	.	32d\	.	32g/	.	32b-/	.	.	.	.	.	.	.	.	.	.	.	.	.	.	.	.	.	.
.	.	32G\JJJ	.	.	.	32d\JJJ	.	32g/JJJ	.	32b-/JJJ	.	.	.	.	.	.	.	.	.	.	.	.	.	.	.	.	.	.
.	.	32A\LLL	.	4.a/	pff	32c#\LLL	.	32g/LLL	.	32a^</LLL	.	.	.	.	.	4.c#^</	.	4.A\	.	4.aa/	4.gg^<\	.	.	.	.	.	.	.
.	.	32A\	.	.	.	32c#\	.	32g/	.	32a/	.	.	.	.	.	.	.	.	.	.	.	.	.	.	.	.	.	.
.	.	32A\	.	.	.	32c#\	.	32g/	.	32a/	.	.	.	.	.	.	.	.	.	.	.	.	.	.	.	.	.	.
.	.	32A\	.	.	.	32c#\	.	32g/	.	32a/	.	.	.	.	.	.	.	.	.	.	.	.	.	.	.	.	.	.
.	.	32A\	.	.	.	32c#\	.	32g/	.	32a/	.	.	.	.	.	.	.	.	.	.	.	.	.	.	.	.	.	.
.	.	32A\	.	.	.	32c#\	.	32g/	.	32a/	.	.	.	.	.	.	.	.	.	.	.	.	.	.	.	.	.	.
.	.	32A\	.	.	.	32c#\	.	32g/	.	32a/	.	.	.	.	.	.	.	.	.	.	.	.	.	.	.	.	.	.
.	.	32A\	.	.	.	32c#\	.	32g/	.	32a/	.	.	.	.	.	.	.	.	.	.	.	.	.	.	.	.	.	.
.	.	32A\	.	.	.	32c#\	.	32g/	.	32a/	.	.	.	.	.	.	.	.	.	.	.	.	.	.	.	.	.	.
.	.	32A\	.	.	.	32c#\	.	32g/	.	32a/	.	.	.	.	.	.	.	.	.	.	.	.	.	.	.	.	.	.
.	.	32A\	.	.	.	32c#\	.	32g/	.	32a/	.	.	.	.	.	.	.	.	.	.	.	.	.	.	.	.	.	.
.	.	32A\JJJ	.	.	.	32c#\JJJ	.	32g/JJJ	.	32a/JJJ	.	.	.	.	.	.	.	.	.	.	.	.	.	.	.	.	.	.
*	*	*Xtremolo	*	*	*	*Xtremolo	*	*Xtremolo	*	*Xtremolo	*	*	*	*	*	*	*	*	*	*	*	*	*	*	*	*	*	*
=31	=31	=31	=31	=31	=31	=31	=31	=31	=31	=31	=31	=31	=31	=31	=31	=31	=31	=31	=31	=31	=31	=31	=31	=31	=31	=31	=31	=31
!	!	!	!	!	!	!LO:TX:a:t=P:problem=mixedbeam	!	!	!	!	!	!	!	!	!	!	!	!	!	!	!	!	!	!	!	!	!	!
8r	.	8D/	.	8dd\	pff	8d\L	.	8f#'</L	.	8d/	.	2.r	.	2.r	.	8d/	.	8D'</L	.	8aa/	8ff#\	.	2.r	.	2.r	.	2.r	.
(>16D\LL	.	(>16DD/LL	.	8r	.	(<16D/L	.	(<16d/L	.	8r	.	.	.	.	.	8r	.	(<16D/L	.	8r	8ryy	.	.	.	.	.	.	.
16C#\	.	16CC#/	.	.	.	16C#/	.	16c#/	.	.	.	.	.	.	.	.	.	16C#/	.	.	.	.	.	.	.	.	.	.
16D\	.	16DD/	.	8r	.	16D/	.	16d/	.	8r	.	.	.	.	.	8r	.	16D/	.	8r	8ryy	.	.	.	.	.	.	.
16C#\JJ	.	16CC#/JJ	.	.	.	16C#/JJ	.	16c#/JJ	.	.	.	.	.	.	.	.	.	16C#/JJ	.	.	.	.	.	.	.	.	.	.
16D\LL	.	16DD/LL	.	4r	.	16D/LL	.	16d/LL	.	4r	.	.	.	.	.	4r	.	16D/LL	.	4r	4ryy	.	.	.	.	.	.	.
16C#\	.	16CC#/	.	.	.	16C#/	.	16c#/	.	.	.	.	.	.	.	.	.	16C#/	.	.	.	.	.	.	.	.	.	.
16D\	.	16DD/	.	.	.	16D/	.	16d/	.	.	.	.	.	.	.	.	.	16D/	.	.	.	.	.	.	.	.	.	.
16C#\	.	16CC#/	.	.	.	16C#/	.	16c#/	.	.	.	.	.	.	.	.	.	16C#/	.	.	.	.	.	.	.	.	.	.
16D\)	.	16DD/)	.	8r	.	16D/	.	16d/)	.	8r	.	.	.	.	.	8r	.	16D/	.	8r	8ryy	.	.	.	.	.	.	.
16D'>\JJ	.	16DD'>/JJ	.	.	.	16D/JJ)	.	16d'</JJ	.	.	.	.	.	.	.	.	.	16D/JJ)	.	.	.	.	.	.	.	.	.	.
=32	=32	=32	=32	=32	=32	=32	=32	=32	=32	=32	=32	=32	=32	=32	=32	=32	=32	=32	=32	=32	=32	=32	=32	=32	=32	=32	=32	=32
*	*	*	*	*	*	*^	*	*	*	*	*	*	*	*	*	*	*	*	*	*	*	*	*	*	*	*	*	*
*	*	*	*	*	*	*	*2\right	*	*	*	*	*	*	*	*	*	*	*	*	*	*	*	*	*	*	*	*	*	*
!	!LO:HP:b	!	!	!	!	!	!	!	!	!	!	!	!	!	!	!	!	!	!	!	!	!	!	!	!	!LO:TX:a:i:t=Col vo. Io.	!	!LO:TX:a:i:t=Col vo. Io.	!
2.D\	<	2.c# 2.E\	.	2.r	.	(>4.B-X/	2.D\	.	(<16c#/LL	.	(>16cc#\LL	.	2.DTT>\	.	2.D\	.	2.c#/	.	2.DD/	.	(>4.b-X/	2.d\	.	16c#/LL	.	(>16cc#\Lyy	.	(>16cc#\LLyy	.
.	.	.	.	.	.	.	.	.	.	.	.	.	.	.	.	.	.	.	.	.	.	.	.	.	.	.	.	.	.
.	.	.	.	.	.	.	.	.	16d/	.	16dd\	.	.	.	.	.	.	.	.	.	.	.	.	16d/	.	16ddyy	.	16ddyy	.
.	.	.	.	.	.	.	.	.	.	.	.	.	.	.	.	.	.	.	.	.	.	.	.	.	.	.	.	.	.
!	!	!	!	!	!	!	!	!	!	!	!	!LO:HP:b	!	!	!	!	!	!	!	!	!	!	!	!	!	!	!LO:HP:b	!	!LO:HP:b
.	.	.	.	.	.	.	.	.	16d#X/	.	16dd#X\	<	.	.	.	.	.	.	.	.	.	.	.	(<16d#X/	.	16dd#yy	<	16dd#yy	<
.	.	.	.	.	.	.	.	.	.	.	.	.	.	.	.	.	.	.	.	.	.	.	.	.	.	.	.	.	.
!	!	!	!	!	!	!	!	!	!	!	!	!	!	!	!	!	!	!LO:HP:b	!	!	!	!	!	!	!	!	!	!	!
.	.	.	.	.	.	.	.	.	16e/	.	16ee\	.	.	.	.	.	.	<	.	.	.	.	.	16e/	.	16eeyy	.	16eeyy	.
.	.	.	.	.	.	.	.	.	.	.	.	.	.	.	.	.	.	.	.	.	.	.	.	.	.	.	.	.	.
.	.	.	.	.	.	.	.	.	16fn/	.	16ffn\	.	.	.	.	.	.	.	.	.	.	.	.	16fX/	<	16ffnyy	.	16ffnyy	.
.	.	.	.	.	.	.	.	.	.	.	.	.	.	.	.	.	.	.	.	.	.	.	.	.	.	.	.	.	.
!	!	!	!	!	!	!	!	!	!	!	!	!	!	!LO:HP:b	!	!	!	!	!	!	!	!	!	!	!	!	!	!	!
.	.	.	.	.	.	.	.	.	16f#X/JJ	.	16ff#X\JJ	.	.	<	.	.	.	.	.	.	.	.	.	16f#/	.	16ff#Jyy	.	16ff#Jyy	.
.	.	.	.	.	.	.	.	.	.	.	.	.	.	.	.	.	.	.	.	.	.	.	.	.	.	.	.	.	.
.	.	.	.	.	.	4.A/)	.	.	16g/LL	.	16gg\LL	.	.	.	.	.	.	.	.	.	4.a/)	.	.	16g/	.	16ggLyy	.	16ggLyy	.
.	.	.	.	.	.	.	.	.	.	.	.	.	.	.	.	.	.	.	.	.	.	.	.	.	.	.	.	.	.
.	.	.	.	.	.	.	.	.	16g#X/	.	16gg#X\	.	.	.	.	.	.	.	.	.	.	.	.	16g#/	.	16gg#yy	.	16gg#yy	.
.	.	.	.	.	.	.	.	.	.	.	.	.	.	.	.	.	.	.	.	.	.	.	.	.	.	.	.	.	.
.	.	.	.	.	.	.	.	.	16a/	.	16aa\	.	.	.	.	.	.	.	.	.	.	.	.	16a/	.	16aayy	.	16aayy	.
.	.	.	.	.	.	.	.	.	.	.	.	.	.	.	.	.	.	.	.	.	.	.	.	.	.	.	.	.	.
.	.	.	.	.	.	.	.	.	16b-X/	.	16bb-X\	.	.	.	.	.	.	.	.	.	.	.	.	16b-X/	.	16bb-yy	.	16bb-yy	.
.	.	.	.	.	.	.	.	.	.	.	.	.	.	[[	.	.	.	.	.	.	.	.	.	.	.	.	.	.	.
.	.	.	.	.	.	.	.	.	16bn/	.	16bbn\	.	.	.	.	.	.	.	.	.	.	.	.	16b/	.	16bbnyy	.	16bbnyy	.
.	.	.	.	.	.	.	.	.	.	.	.	.	.	.	.	.	.	.	.	.	.	.	.	.	[	.	.	.	.
.	.	.	.	.	.	.	.	.	16cc#/JJ)	.	16ccc#\JJ)	[[	.	.	.	.	.	.	.	.	.	.	.	16cc#/JJ)	.	16ccc#\J)yy	[[	16ccc#\JJ)yy	[[
.	[	.	.	.	.	.	.	.	.	.	.	.	.	.	.	.	.	[	.	.	.	.	.	.	.	.	.	.	.
*	*	*	*	*	*	*v	*v	*	*	*	*	*	*	*	*	*	*	*	*	*	*v	*v	*	*	*	*	*	*	*
!!LO:PB:g=original
=33	=33	=33	=33	=33	=33	=33	=33	=33	=33	=33	=33	=33	=33	=33	=33	=33	=33	=33	=33	=33	=33	=33	=33	=33	=33	=33	=33
!	!LO:DY:b:rj	!	!LO:DY:b:rj	!	!	!	!LO:DY:a:rj	!LO:TX:i:a:t=col Io. 8va.	!	!	!	!LO:N:vis=2	!LO:DY:b:rj	!	!	!	!	!	!LO:DY:b:rj	!	!LO:DY:b:rj	!	!	!	!	!	!
2.D\	sf	2.d 2.F#\	sf	2.r	.	2.A 2.D/	sf	16dd\LLyy	.	16ddd\LL	.	2.DTTT>\	sf	2.D\	.	2.d/	.	2.DD/	sf	2.a 2.d/	sf	(<16dd/LL	.	16dddLyy	.	16dddLyy	.
!	!	!	!LO:HP:b	!	!	!	!	!	!	!	!	!	!	!	!	!	!	!	!	!	!	!	!	!	!	!	!
.	.	.	>	.	.	.	.	.	.	.	.	.	.	.	.	.	.	.	.	.	.	.	.	.	.	.	.
!	!	!	!	!	!	!	!	!	!	!	!LO:HP:b	!	!	!	!	!	!	!	!	!	!	!	!LO:HP:b	!	!LO:HP:b	!	!LO:HP:b
.	.	.	.	.	.	.	.	16cc#\yy	.	16ccc#\	>	.	.	.	.	.	.	.	.	.	.	16cc#/	>	16ccc#yy	>	16ccc#yy	>
.	.	.	.	.	.	.	.	.	.	.	.	.	.	.	.	.	.	.	.	.	.	.	.	.	.	.	.
.	.	.	.	.	.	.	.	16ccn\yy	.	16cccn\	.	.	.	.	.	.	.	.	.	.	.	16ccX/	.	16cccnyy	.	16cccnyy	.
.	.	.	.	.	.	.	.	.	.	.	.	.	.	.	.	.	.	.	.	.	.	.	.	.	.	.	.
.	.	.	.	.	.	.	.	16b\yy	.	16bb\	.	.	.	.	.	.	.	.	.	.	.	16b/	.	16bbyy	.	16bbyy	.
.	.	.	.	.	.	.	.	.	.	.	.	.	.	.	.	.	.	.	.	.	.	.	.	.	.	.	.
.	.	.	.	.	.	.	.	16b-X\yy	.	16bb-X\	.	.	.	.	.	.	.	.	.	.	.	16b-X/	.	16bb-yy	.	16bb-yy	.
.	.	.	.	.	.	.	.	.	.	.	.	.	.	.	.	.	.	.	.	.	.	.	.	.	.	.	.
.	.	.	.	.	.	.	.	16a\JJyy	.	16aa\JJ	.	.	.	.	.	.	.	.	.	.	.	16a/JJ	.	16aaJyy	.	16aaJyy	.
.	.	.	.	.	.	.	.	.	.	.	.	.	.	.	.	.	.	.	.	.	.	.	.	.	.	.	.
!	!	!	!	!	!	!	!	!	!	!	!	!	!LO:HP:b	!	!	!	!	!	!	!	!	!	!	!	!	!	!
.	.	.	.	.	.	.	.	16g#X/LLyy	.	16gg#X\LL	.	.	>	.	.	.	.	.	.	.	.	16g#/LL	.	16gg#Lyy	.	16gg#Lyy	.
.	.	.	.	.	.	.	.	.	.	.	.	.	.	.	.	.	.	.	.	.	.	.	.	.	.	.	.
.	.	.	.	.	.	.	.	16gn/yy	.	16ggn\	]	.	.	.	.	.	.	.	.	.	.	16gX/	.	16ggnyy	]	16ggnyy	]
.	.	.	.	.	.	.	.	.	.	.	.	.	.	.	.	.	.	.	.	.	.	.	.	.	.	.	.
.	.	.	.	.	.	.	.	16f#/yy	.	16ff#\	.	.	.	.	.	.	.	.	.	.	.	16f#/	.	16ff#yy	.	16ff#yy	.
.	.	.	.	.	.	.	.	.	.	.	.	.	.	.	.	.	.	.	.	.	.	.	.	.	.	.	.
.	.	.	.	.	.	.	.	16fn/yy	.	16ffn\	.	.	.	.	.	.	.	.	.	.	.	16fX/	]	16ffnyy	.	16ffnyy	.
.	.	.	.	.	.	.	.	.	.	.	.	.	.	.	.	.	.	.	.	.	.	.	.	.	.	.	.
.	.	.	.	.	.	.	.	16e/yy	.	16ee\	.	.	]	.	.	.	.	.	.	.	.	16e/	.	16eeyy	.	16eeyy	.
.	.	.	.	.	.	.	.	.	.	.	.	.	.	.	.	.	.	.	.	.	.	.	.	.	.	.	.
.	.	.	.	.	.	.	.	16d/JJyy	.	16dd\JJ	.	.	.	.	.	.	.	.	.	.	.	16d/JJ)	.	16ddJyy	.	16ddJyy	.
.	.	.	]	.	.	.	.	.	.	.	.	.	.	.	.	.	.	.	.	.	.	.	.	.	.	.	.
=34	=34	=34	=34	=34	=34	=34	=34	=34	=34	=34	=34	=34	=34	=34	=34	=34	=34	=34	=34	=34	=34	=34	=34	=34	=34	=34	=34
*	*	*	*	*	*	*^	*	*	*	*	*	*	*	*	*	*	*	*	*	*^	*	*	*	*	*	*	*
!	!	!	!LO:HP:b	!	!	!	!	!	!	!	!	!	!	!	!	!	!	!	!	!	!	!	!	!	!	!	!	!	!
2.D\	.	2.c# 2.E\	<	2.r	.	(>4.B-X/	2.D\	.	16c#/LLyy	.	16cc#\LL	.	2.DTT>\	.	2.D\	.	2.c#/	.	2.DD/	.	4.b-X/	2.d\	.	16c#/LL	.	16cc#\Lyy	.	16cc#\Lyy	.
.	.	.	.	.	.	.	.	.	.	.	.	.	.	.	.	.	.	.	.	.	.	.	.	.	.	.	.	.	.
!	!	!	!	!	!	!	!	!	!	!	!	!LO:HP:b	!	!	!	!	!	!	!	!	!	!	!	!	!	!	!LO:HP:b	!	!LO:HP:b
.	.	.	.	.	.	.	.	.	16d/yy	.	16dd\	<	.	.	.	.	.	.	.	.	.	.	.	(<16d/	.	16ddyy	<	16ddyy	<
.	.	.	.	.	.	.	.	.	.	.	.	.	.	.	.	.	.	.	.	.	.	.	.	.	.	.	.	.	.
.	.	.	.	.	.	.	.	.	16d#X/yy	.	16dd#X\	.	.	.	.	.	.	.	.	.	.	.	.	16d#X/	.	16dd#yy	.	16dd#yy	.
.	.	.	.	.	.	.	.	.	.	.	.	.	.	.	.	.	.	.	.	.	.	.	.	.	.	.	.	.	.
!	!	!	!	!	!	!	!	!LO:HP:b	!	!	!	!	!	!	!	!	!	!	!	!	!	!	!	!	!	!	!	!	!
.	.	.	.	.	.	.	.	<	16e/yy	.	16ee\	.	.	.	.	.	.	.	.	.	.	.	.	16e/	.	16eeyy	.	16eeyy	.
.	.	.	.	.	.	.	.	.	.	.	.	.	.	.	.	.	.	.	.	.	.	.	.	.	.	.	.	.	.
!	!	!	!	!	!	!	!	!	!	!	!	!	!	!	!	!	!	!	!	!	!	!	!	!	!LO:HP:b	!	!	!	!
.	.	.	.	.	.	.	.	.	16fn/yy	.	16ffn\	.	.	.	.	.	.	.	.	.	.	.	.	16fX/	<	16ffnyy	.	16ffnyy	.
.	.	.	.	.	.	.	.	.	.	.	.	.	.	.	.	.	.	.	.	.	.	.	.	.	.	.	.	.	.
.	.	.	.	.	.	.	.	.	16f#X/JJyy	.	16ff#X\JJ	.	.	.	.	.	.	.	.	.	.	.	.	16f#/JJ	.	16ff#Jyy	.	16ff#Jyy	.
.	.	.	.	.	.	.	.	.	.	.	.	.	.	.	.	.	.	.	.	.	.	.	.	.	.	.	.	.	.
!	!	!	!	!	!	!	!	!	!	!	!	!	!	!LO:HP:b	!	!	!	!	!	!	!	!	!	!	!	!	!	!	!
.	.	.	.	.	.	4.A/)	.	.	16g/LLyy	.	16gg\LL	.	.	<	.	.	.	.	.	.	4.a/	.	.	16gX/LL	.	16ggLyy	.	16ggLyy	.
.	.	.	.	.	.	.	.	.	.	.	.	.	.	.	.	.	.	.	.	.	.	.	.	.	.	.	.	.	.
.	.	.	.	.	.	.	.	.	16g#X/yy	.	16gg#X\	.	.	.	.	.	.	.	.	.	.	.	.	16g#/	.	16gg#yy	.	16gg#yy	.
.	.	.	.	.	.	.	.	.	.	.	.	.	.	.	.	.	.	.	.	.	.	.	.	.	.	.	.	.	.
.	.	.	.	.	.	.	.	.	16a/yy	.	16aa\	.	.	.	.	.	.	.	.	.	.	.	.	16a/	.	16aayy	.	16aayy	.
.	.	.	.	.	.	.	.	.	.	.	.	.	.	.	.	.	.	.	.	.	.	.	.	.	.	.	.	.	.
.	.	.	.	.	.	.	.	.	16b-X/yy	.	16bb-X\	.	.	.	.	.	.	.	.	.	.	.	.	16b-X/	.	16bb-yy	.	16bb-yy	.
.	.	.	.	.	.	.	.	.	.	.	.	.	.	.	.	.	.	.	.	.	.	.	.	.	.	.	.	.	.
.	.	.	.	.	.	.	.	.	16bn/yy	.	16bbn\	.	.	.	.	.	.	.	.	.	.	.	.	16b/	.	16bbnyy	.	16bbnyy	.
.	.	.	.	.	.	.	.	.	.	.	.	.	.	.	.	.	.	.	.	.	.	.	.	.	.	.	.	.	.
.	.	.	.	.	.	.	.	.	16cc#/JJyy	.	16ccc#\JJ	.	.	[	.	.	.	.	.	.	.	.	.	16cc#/JJ)	[[	16ccc#Jyy	.	16ccc#Jyy	.
.	.	.	[	.	.	.	.	[	.	.	.	[	.	.	.	.	.	.	.	.	.	.	.	.	.	.	[	.	[
*	*	*	*	*	*	*v	*v	*	*	*	*	*	*	*	*	*	*	*	*	*	*v	*v	*	*	*	*	*	*	*
=35||	=35||	=35||	=35||	=35||	=35||	=35||	=35||	=35||	=35||	=35||	=35||	=35||	=35||	=35||	=35||	=35||	=35||	=35||	=35||	=35||	=35||	=35||	=35||	=35||	=35||	=35||	=35||
*M2/4	*	*M2/4	*	*M2/4	*	*M2/4	*	*M2/4	*	*M2/4	*	*M2/4	*	*M2/4	*	*M2/4	*	*M2/4	*	*M2/4	*	*M2/4	*	*M2/4	*	*M2/4	*
*	*	*	*	*	*	*	*	*	*	*	*	*	*	*	*	*	*	*	*	*^	*	*	*	*	*	*	*
!	!	!	!LO:DY:b:rj	!	!	!	!LO:DY:b:rj	!	!	!	!LO:DY:b:rj	!	!	!	!	!	!	!	!	!	!	!	!	!LO:DY:b:rj	!	!	!	!LO:DY:b:rj
8D\	.	8d 8F#\	f	2r	.	8A 8D/	f	8dd\	.	8ddd\	f	8D\	.	8D\	.	8d/	.	8DD/	.	8a 8d/	4ryy	.	8dd\	f	8ddd\	.	8ddd\	f
8r	.	8r	.	.	.	8r	.	8r	.	8r	.	8r	.	8r	.	8r	.	8r	.	8r	.	.	8r	.	8r	.	8r	.
!	!	!	!	!	!	!	!	!	!	!	!	!	!	!	!LO:DY:b	!	!LO:DY:b	!	!LO:DY:b	!	!	!LO:DY:b	!	!	!	!	!	!
4r	.	4r	.	.	.	4r	.	4r	.	4r	.	4r	.	4G\	sf	4b-X/	sf	4G\	sf	4gg/	4dd\	sf	4r	.	4r	.	4r	.
.	.	.	.	.	.	.	.	.	.	.	.	.	.	.	.	.	.	.	.	.	.	.	.	.	.	.	.	.
!!LO:PB:g=original
=36	=36	=36	=36	=36	=36	=36	=36	=36	=36	=36	=36	=36	=36	=36	=36	=36	=36	=36	=36	=36	=36	=36	=36	=36	=36	=36	=36	=36
*	*	*	*	*	*	*	*	*	*	*	*	*	*	*	*	*	*	*	*	*	*	*	*^	*	*	*	*	*
!	!	!LO:TX:t=P:problem=brak zapisanej partii. Odnośnik do cb	!	!	!	!	!	!	!	!	!	!	!	!	!	!	!	!	!	!	!	!	!	!	!	!	!	!	!
4r	.	4ryy	.	2r	.	4r	.	4r	.	4r	.	4r	.	8A\	.	8a/	.	8A\	.	8ff#/	8dd\	.	4r	4ryy	.	4r	.	4r	.
.	.	.	.	.	.	.	.	.	.	.	.	.	.	8r	.	8r	.	8r	.	8r	8ryy	.	.	.	.	.	.	.	.
!	!LO:DY:b:rj	!	!LO:DY:b:rj	!	!	!	!	!	!	!	!LO:DY:b:rj	!	!	!	!LO:DY:b:rj	!	!	!	!	!	!	!LO:DY:b:rj	!	!	!	!	!LO:DY:a:rj	!	!
8A\	f	8A\yy	f	.	.	8e 8A/	.	8gg 8a\	.	8ccc# 8ee\	f	8AA/	.	8AA/	f	8a/	.	8A\	.	8ee 8a/	4ryy	f	8cc#/	8g\	.	8ee\	f	8ccc#\	.
8r	.	8ryy	.	.	.	8r	.	8r	.	8r	.	8r	.	8r	.	8r	.	8r	.	8r	.	.	8r	8ryy	.	8r	.	8r	.
*	*	*	*	*	*	*	*	*	*	*	*	*	*	*	*	*	*	*	*	*v	*v	*	*	*	*	*	*	*	*
*	*	*	*	*	*	*	*	*	*	*	*	*	*	*	*	*	*	*	*	*	*	*v	*v	*	*	*	*	*
=37	=37	=37	=37	=37	=37	=37	=37	=37	=37	=37	=37	=37	=37	=37	=37	=37	=37	=37	=37	=37	=37	=37	=37	=37	=37	=37	=37
8D\	.	8D\yy	.	4r	.	8f# 8A 8D/	.	8ff# 8a\	.	8ddd 8ff#\	.	8D/	.	8D/	.	8d/	.	8D\	.	8dd 8f#/	.	8dd 8f#\	.	8ff#\	.	8ddd\	.
!	!	!	!	!	!	!	!	!	!	!	!	!	!	!	!	!	!	!	!	!	!	!	!	!	!	!LO:TX:a:t=P:problem=znak segno nad kreską	!
!	!	!	!	!	!	!	!	!	!	!	!	!	!	!	!	!	!	!	!	!	!	!	!	!	!	!LO:TX:t=[segno]	!
8r	.	8ryy	.	.	.	8r	.	8r	.	8r	.	8r	.	8r	.	8r	.	8r	.	8r	.	8r	.	8r	.	8r	.
==	==	==	==	==	==	==	==	==	==	==	==	==	==	==	==	==	==	==	==	==	==	==	==	==	==	==	==
*-	*-	*-	*-	*-	*-	*-	*-	*-	*-	*-	*-	*-	*-	*-	*-	*-	*-	*-	*-	*-	*-	*-	*-	*-	*-	*-	*-
!!!system-decoration: [{s1,s2}s3,s4,s5,s6,s7,s8{s9,s10}s11,s12,s13{s14,s15}]
!!!RDF**kern: | = vertical stroke
!!!RDF**kern: > = above
!!!RDF**kern: < = below
!!!RDF**kern: N = linked
!!!EED: Antoni Szymański
!!!EEV: 2021-05-19
!!!ENC: Berenika Jozajtis
!!!END: 2021-05-01
!!!YEC: Copyright 2022 Narodowy Instytut Fryderyka Chopina (https://polishscores.org)
!!!YEM: Licence CC BY 4.0 (https://creativecommons.org/licenses/by/4.0)
